<?xml version="1.0" encoding="UTF-8"?>
<map version="1.10" tiledversion="1.12.2" orientation="orthogonal" renderorder="right-down" width="13" height="18" tilewidth="16" tileheight="16" infinite="0" nextlayerid="10" nextobjectid="11">
 <tileset firstgid="1" source="../tilestes/Set 1.tsx"/>
 <tileset firstgid="561" source="../tilestes/CARTELLI.tsx"/>
 <tileset firstgid="1416" source="../tilestes/Torch Yellow L.tsx"/>
 <tileset firstgid="1424" source="../tilestes/Torch Yellow R.tsx"/>
 <layer id="1" name="Base" width="13" height="18">
  <data encoding="csv">
0,0,0,0,0,0,0,0,0,0,0,0,0,
0,0,0,0,41,202,203,204,44,0,0,0,0,
0,0,41,43,124,230,231,232,67,43,44,0,0,
0,0,69,98,98,98,98,98,98,98,100,0,0,
0,0,69,98,98,98,98,98,98,98,100,0,0,
0,0,69,98,98,98,98,98,98,98,100,0,0,
0,0,69,98,98,98,98,98,98,98,100,0,0,
0,0,69,98,98,98,98,98,98,98,100,0,0,
0,0,69,98,98,98,98,98,98,98,100,0,0,
0,0,69,98,98,98,98,98,98,98,100,0,0,
0,0,69,3221225671,3221225671,3221225671,3221225671,3221225671,214,214,100,0,0,
0,0,145,146,146,146,147,148,69,100,145,0,0,
0,0,149,3221225617,3221225619,3221225619,3221225619,3221225619,69,100,3221225617,0,0,
0,0,312,198,199,199,199,199,270,270,100,0,0,
0,0,69,98,98,98,98,98,98,98,100,0,0,
0,0,125,126,94,98,98,98,95,126,128,0,0,
0,0,0,0,69,98,98,98,100,0,0,0,0,
0,0,0,0,125,1610612973,1610612973,1610612973,128,0,0,0,0
</data>
 </layer>
 <objectgroup id="6" name="Start">
  <object id="1" name="Start0_1" type="Start" x="96" y="256" width="16" height="16"/>
 </objectgroup>
 <objectgroup id="7" name="Porta0">
  <object id="4" name="Porta0" type="Portale" x="80" y="272" width="48" height="9">
   <properties>
    <property name="dest" value="lvl0"/>
    <property name="type" value="porta"/>
   </properties>
  </object>
 </objectgroup>
 <objectgroup id="8" name="Porta1">
  <object id="5" name="Porta1" type="Portale" x="87" y="39" width="34" height="9">
   <properties>
    <property name="dest" value="lvl1_0"/>
    <property name="type" value="porta"/>
   </properties>
  </object>
 </objectgroup>
 <layer id="2" name="extradet" width="13" height="18">
  <data encoding="csv">
0,0,0,0,0,0,0,0,0,0,0,0,0,
0,0,0,0,0,0,0,0,0,0,0,0,0,
0,0,0,0,0,0,0,0,0,0,0,0,0,
0,0,0,0,0,0,0,0,0,0,0,0,0,
0,0,0,0,0,0,0,0,0,0,0,0,0,
0,0,0,0,0,0,0,0,0,0,0,0,0,
0,0,0,0,0,0,0,0,0,0,0,0,0,
0,0,0,0,0,0,0,0,0,0,0,0,0,
0,0,0,0,0,0,0,0,0,0,0,0,0,
0,0,0,0,0,0,0,0,0,0,0,0,0,
0,0,3221225643,0,0,0,0,0,0,0,3221225641,0,0,
0,0,0,0,0,0,0,0,0,0,0,0,0,
0,0,0,0,0,0,0,0,0,0,0,0,0,
0,0,0,0,0,0,0,0,0,0,171,0,0,
0,0,169,835,0,0,0,0,0,0,0,0,0,
0,0,0,0,0,0,0,0,0,0,0,0,0,
0,0,0,0,0,0,0,0,0,0,0,0,0,
0,0,0,0,0,0,0,0,0,0,0,0,0
</data>
 </layer>
 <layer id="3" name="dec" width="13" height="18">
  <data encoding="csv">
0,0,0,0,0,0,0,0,0,0,0,0,0,
0,0,0,0,0,0,0,0,0,0,0,0,0,
0,0,0,0,0,0,0,0,0,0,0,0,0,
0,0,348,0,0,0,0,0,347,352,353,0,0,
0,0,0,0,346,0,0,0,816,380,381,0,0,
0,0,0,0,0,0,0,0,0,0,0,0,0,
0,0,0,375,377,0,0,0,374,0,0,0,0,
0,0,0,0,0,0,0,0,0,374,0,0,0,
0,0,0,0,0,0,0,375,0,0,0,0,0,
0,0,0,345,0,0,0,0,0,0,0,0,0,
0,0,0,0,0,0,376,0,0,0,0,0,0,
0,0,0,0,0,0,0,0,0,0,0,0,0,
0,0,0,0,0,0,0,511,0,0,511,0,0,
0,0,0,377,0,0,0,539,0,0,539,0,0,
0,0,0,0,0,0,0,0,374,0,0,0,0,
0,0,0,0,348,0,0,0,0,0,0,0,0,
0,0,0,0,0,0,0,0,0,0,0,0,0,
0,0,0,0,0,0,0,0,0,0,0,0,0
</data>
 </layer>
 <layer id="4" name="Tl" width="13" height="18" offsetx="1.75" offsety="-3.5">
  <data encoding="csv">
0,0,0,0,0,0,0,0,0,0,0,0,0,
0,0,0,0,0,0,0,0,0,0,0,0,0,
0,0,0,0,0,0,0,0,0,0,0,0,0,
0,0,0,0,0,0,0,0,0,0,0,0,0,
0,0,1416,0,0,0,0,0,0,0,0,0,0,
0,0,0,0,0,0,0,0,0,0,0,0,0,
0,0,0,0,0,0,0,0,0,0,0,0,0,
0,0,0,0,0,0,0,0,0,0,0,0,0,
0,0,1416,0,0,0,0,0,0,0,0,0,0,
0,0,0,0,0,0,0,0,0,0,0,0,0,
0,0,0,0,0,0,0,0,0,0,0,0,0,
0,0,0,0,0,0,0,0,0,0,0,0,0,
0,0,0,0,0,0,0,0,0,0,0,0,0,
0,0,0,0,0,0,0,0,0,0,0,0,0,
0,0,0,0,0,0,0,0,0,0,0,0,0,
0,0,1416,0,0,0,0,0,0,0,0,0,0,
0,0,0,0,0,0,0,0,0,0,0,0,0,
0,0,0,0,0,0,0,0,0,0,0,0,0
</data>
 </layer>
 <layer id="5" name="Tr" width="13" height="18" offsetx="-2.75" offsety="-3.75">
  <data encoding="csv">
0,0,0,0,0,0,0,0,0,0,0,0,0,
0,0,0,0,0,0,0,0,0,0,0,0,0,
0,0,0,0,0,0,0,0,0,0,0,0,0,
0,0,0,0,0,0,0,0,0,0,0,0,0,
0,0,0,0,0,0,0,0,0,0,1424,0,0,
0,0,0,0,0,0,0,0,0,0,0,0,0,
0,0,0,0,0,0,0,0,0,0,0,0,0,
0,0,0,0,0,0,0,0,0,0,0,0,0,
0,0,0,0,0,0,0,0,0,0,1424,0,0,
0,0,0,0,0,0,0,0,0,0,0,0,0,
0,0,0,0,0,0,0,0,0,0,0,0,0,
0,0,0,0,0,0,0,0,0,0,0,0,0,
0,0,0,0,0,0,0,0,0,0,0,0,0,
0,0,0,0,0,0,0,0,0,0,0,0,0,
0,0,0,0,0,0,0,0,0,0,0,0,0,
0,0,0,0,0,0,0,0,0,0,1424,0,0,
0,0,0,0,0,0,0,0,0,0,0,0,0,
0,0,0,0,0,0,0,0,0,0,0,0,0
</data>
 </layer>
 <objectgroup id="9" name="NPC">
  <object id="9" name="npc_tutorial_difesa" type="NPC" x="58" y="152">
   <properties>
    <property name="aspetto" value="guardia_scudo"/>
    <property name="type_tutorial" value="spare"/>
   </properties>
   <point/>
  </object>
  <object id="8" name="npc_tutorial_attacco" type="NPC" x="144" y="199">
   <properties>
    <property name="aspetto" value="maestro_spada"/>
    <property name="type_tutorial" value="attack"/>
   </properties>
   <point/>
  </object>
  <object id="10" name="npc_tutorial_shop" type="NPC" x="61" y="69">
   <properties>
    <property name="aspetto" value="shop"/>
    <property name="type_tutorial" value="shop"/>
   </properties>
   <point/>
  </object>
 </objectgroup>
</map>
