<?xml version="1.0" encoding="UTF-8"?>
<map version="1.10" tiledversion="1.12.2" orientation="orthogonal" renderorder="right-down" width="13" height="17" tilewidth="16" tileheight="16" infinite="0" nextlayerid="12" nextobjectid="4">
 <tileset firstgid="1" source="../tilestes/Set 1.tsx"/>
 <tileset firstgid="561" source="../tilestes/Torch Yellow L.tsx"/>
 <tileset firstgid="569" source="../tilestes/Torch Yellow R.tsx"/>
 <group id="8" name="Group Layer 1">
  <layer id="1" name="base" width="13" height="17" offsetx="-0.5" offsety="0">
   <data encoding="csv">
0,0,0,0,0,0,0,0,0,0,0,0,0,
0,0,0,0,0,202,203,204,0,0,0,0,0,
0,0,0,0,41,230,231,232,44,0,0,0,0,
0,0,0,41,66,98,98,98,67,44,0,0,0,
0,0,41,124,98,98,98,98,98,67,44,0,0,
0,0,69,98,98,98,98,98,98,98,100,0,0,
0,41,124,98,98,98,98,98,98,98,67,44,0,
0,69,98,98,98,98,98,98,98,98,98,100,0,
0,69,98,98,98,98,98,98,98,98,98,100,0,
0,69,98,98,98,98,98,98,98,98,98,100,0,
0,125,94,98,98,98,98,98,98,98,95,128,0,
0,0,69,98,98,98,98,98,98,98,100,0,0,
0,0,125,94,98,98,98,98,98,95,128,0,0,
0,0,0,125,94,98,98,98,95,128,0,0,0,
0,0,0,0,125,94,98,95,128,0,0,0,0,
0,0,0,0,0,125,126,128,0,0,0,0,0,
0,0,0,0,0,0,0,0,0,0,0,0,0
</data>
  </layer>
  <objectgroup id="9" name="porta0">
   <object id="1" name="porta0" type="Portale" x="86" y="32" width="34" height="16">
    <properties>
     <property name="destinazione" value="lvl0_1"/>
     <property name="type" value="porta"/>
    </properties>
   </object>
  </objectgroup>
  <objectgroup id="11" name="Start">
   <object id="3" name="Start0" type="Start" x="96" y="144" width="16" height="16">
    <properties>
     <property name="type" value="startPoint"/>
    </properties>
   </object>
  </objectgroup>
  <layer id="7" name="dec" width="13" height="17">
   <data encoding="csv">
0,0,0,0,0,0,0,0,0,0,0,0,0,
0,0,0,0,0,0,0,0,0,0,0,0,0,
0,0,0,0,0,0,0,0,0,0,0,0,0,
0,0,0,0,0,0,0,0,0,0,0,0,0,
0,0,0,348,346,0,0,0,375,0,377,0,0,
0,0,0,0,0,0,0,0,0,0,0,0,0,
0,0,375,0,0,0,0,0,0,0,375,0,0,
0,377,0,0,0,374,0,0,0,375,0,0,0,
0,0,0,0,0,0,0,0,0,0,0,0,0,
0,0,377,0,0,0,345,0,0,0,346,0,0,
0,0,0,0,0,376,0,0,0,0,376,0,0,
0,0,0,0,0,0,0,375,0,0,0,0,0,
0,0,0,346,0,0,0,0,0,352,0,0,0,
0,0,0,0,348,0,0,0,0,0,0,0,0,
0,0,0,0,0,0,374,0,0,0,0,0,0,
0,0,0,0,0,0,377,0,0,0,0,0,0,
0,0,0,0,0,0,0,0,0,0,0,0,0
</data>
  </layer>
  <layer id="4" name="torceL" width="13" height="17" offsetx="2.75" offsety="-1.75">
   <data encoding="csv">
0,0,0,0,0,0,0,0,0,0,0,0,0,
0,0,0,0,0,0,0,0,0,0,0,0,0,
0,0,0,0,0,0,0,0,0,0,0,0,0,
0,0,0,561,0,0,0,0,0,0,0,0,0,
0,0,0,0,0,0,0,0,0,0,0,0,0,
0,0,0,0,0,0,0,0,0,0,0,0,0,
0,561,0,0,0,0,0,0,0,0,0,0,0,
0,0,0,0,0,0,0,0,0,0,0,0,0,
0,0,0,0,0,0,0,0,0,0,0,0,0,
0,561,0,0,0,0,0,0,0,0,0,0,0,
0,0,0,0,0,0,0,0,0,0,0,0,0,
0,0,0,0,0,0,0,0,0,0,0,0,0,
0,0,0,0,0,0,0,0,0,0,0,0,0,
0,0,0,561,0,0,0,0,0,0,0,0,0,
0,0,0,0,0,0,0,0,0,0,0,0,0,
0,0,0,0,0,0,0,0,0,0,0,0,0,
0,0,0,0,0,0,0,0,0,0,0,0,0
</data>
  </layer>
  <layer id="5" name="torceR" width="13" height="17" offsetx="-3" offsety="-1.25">
   <data encoding="csv">
0,0,0,0,0,0,0,0,0,0,0,0,0,
0,0,0,0,0,0,0,0,0,0,0,0,0,
0,0,0,0,0,0,0,0,0,0,0,0,0,
0,0,0,0,0,0,0,0,0,569,0,0,0,
0,0,0,0,0,0,0,0,0,0,0,0,0,
0,0,0,0,0,0,0,0,0,0,0,0,0,
0,0,0,0,0,0,0,0,0,0,0,569,0,
0,0,0,0,0,0,0,0,0,0,0,0,0,
0,0,0,0,0,0,0,0,0,0,0,0,0,
0,0,0,0,0,0,0,0,0,0,0,569,0,
0,0,0,0,0,0,0,0,0,0,0,0,0,
0,0,0,0,0,0,0,0,0,0,0,0,0,
0,0,0,0,0,0,0,0,0,0,0,0,0,
0,0,0,0,0,0,0,0,0,569,0,0,0,
0,0,0,0,0,0,0,0,0,0,0,0,0,
0,0,0,0,0,0,0,0,0,0,0,0,0,
0,0,0,0,0,0,0,0,0,0,0,0,0
</data>
  </layer>
  <layer id="3" name="colonne" width="13" height="17">
   <data encoding="csv">
0,0,0,0,0,0,0,0,0,0,0,0,0,
0,0,0,0,0,0,0,0,0,0,0,0,0,
0,0,0,0,0,0,0,0,0,0,0,0,0,
0,0,0,0,0,0,0,0,0,0,0,0,0,
0,0,0,510,0,0,0,0,0,510,0,0,0,
0,0,0,538,0,0,0,0,0,538,0,0,0,
0,0,0,0,0,0,0,0,0,0,0,0,0,
0,0,510,0,0,0,0,0,0,0,510,0,0,
0,0,538,0,0,0,0,0,0,0,538,0,0,
0,0,0,0,0,0,0,0,0,0,0,0,0,
0,0,0,510,0,0,0,0,0,510,0,0,0,
0,0,0,538,0,0,0,0,0,538,0,0,0,
0,0,0,0,0,0,510,0,0,0,0,0,0,
0,0,0,0,0,0,538,0,0,0,0,0,0,
0,0,0,0,0,0,0,0,0,0,0,0,0,
0,0,0,0,0,0,0,0,0,0,0,0,0,
0,0,0,0,0,0,0,0,0,0,0,0,0
</data>
  </layer>
 </group>
</map>
