<?xml version="1.0" encoding="UTF-8"?>
<map version="1.10" tiledversion="1.12.1" orientation="orthogonal" renderorder="right-down" width="41" height="16" tilewidth="16" tileheight="16" infinite="0" nextlayerid="8" nextobjectid="8">
 <tileset firstgid="1" source="../tilestes/Set 1.tsx"/>
 <tileset firstgid="561" source="../tilestes/tileset_full.tsx"/>
 <tileset firstgid="961" source="../tilestes/cristalli.tsx"/>
 <layer id="1" name="base" width="41" height="16" locked="1">
  <data encoding="csv">
0,0,0,0,0,0,0,0,0,0,0,0,0,0,0,0,0,0,0,0,0,0,0,0,0,0,0,0,0,0,0,0,0,0,0,0,0,0,0,0,0,
0,41,43,43,43,43,43,43,43,43,43,43,44,0,0,0,0,0,0,0,0,41,43,43,43,43,43,43,43,43,43,44,0,0,0,0,0,0,0,0,0,
0,69,98,98,98,98,98,98,98,98,98,98,100,0,0,0,0,0,0,0,0,69,98,98,98,98,98,98,98,98,98,100,0,0,0,0,0,0,0,0,0,
0,69,98,98,98,98,98,98,98,98,98,98,100,0,0,0,0,0,0,0,0,69,98,98,98,98,98,98,98,98,98,100,0,0,0,0,0,0,0,0,0,
0,69,98,98,98,98,98,98,98,98,98,98,100,0,0,198,199,200,0,0,0,69,98,98,98,98,98,98,98,98,98,100,0,0,0,0,0,0,0,0,0,
0,125,126,126,126,94,98,98,95,126,126,126,128,0,0,226,227,228,0,0,0,125,126,126,94,98,98,98,95,126,126,128,0,0,0,0,0,0,0,0,0,
0,0,0,0,0,69,98,98,100,0,0,0,0,0,0,3221225672,227,2684354760,0,0,0,0,0,0,69,98,98,98,100,0,0,0,0,198,199,199,199,200,0,0,0,
0,0,0,0,0,69,98,98,100,0,0,0,0,0,0,0,0,0,0,0,0,0,0,0,69,98,98,98,100,0,0,0,198,256,227,227,227,2684354816,200,0,0,
0,0,0,41,43,66,98,98,67,43,43,43,43,43,43,43,98,43,43,43,43,43,43,43,66,98,98,98,67,43,199,199,227,227,227,227,227,227,2684354816,200,0,
0,0,0,69,98,98,98,98,98,98,98,98,98,98,98,98,98,98,98,98,98,98,98,98,98,98,98,98,98,98,227,227,227,227,227,227,227,227,227,228,0,
0,0,0,125,126,126,126,126,126,126,126,98,126,126,126,126,126,126,126,126,126,98,126,126,126,126,126,126,126,126,3221225671,3221225671,227,227,227,227,227,227,3221225728,3221225670,0,
0,0,0,0,0,0,0,0,0,0,0,0,0,0,0,0,0,0,0,0,0,0,0,0,0,0,0,0,0,0,0,0,3221225672,1610612992,227,227,227,227,3221225670,0,0,
0,0,0,0,0,0,0,0,0,0,198,227,200,0,0,0,0,0,0,0,198,227,200,0,0,0,0,0,0,0,0,0,0,3221225672,3221225671,3221225671,3221225671,3221225670,0,0,0,
0,0,0,0,0,0,0,0,0,0,226,227,228,0,0,0,0,0,0,0,226,227,228,0,0,0,0,0,0,0,0,0,0,0,0,0,0,0,0,0,0,
0,0,0,0,0,0,0,0,0,0,3221225672,1610612962,2684354760,0,0,0,0,0,0,0,3221225672,1610612962,2684354760,0,0,0,0,0,0,0,0,0,0,0,0,0,0,0,0,0,0,
0,0,0,0,0,0,0,0,0,0,0,0,0,0,0,0,0,0,0,0,0,0,0,0,0,0,0,0,0,0,0,0,0,0,0,0,0,0,0,0,0
</data>
 </layer>
 <layer id="2" name="ponti" width="41" height="16">
  <data encoding="csv">
0,0,0,0,0,0,0,0,0,0,0,0,0,0,0,0,0,0,0,0,0,0,0,0,0,0,0,0,0,0,0,0,0,0,0,0,0,0,0,0,0,
0,0,0,0,0,0,0,0,0,0,0,0,0,0,0,0,0,0,0,0,0,0,0,0,0,0,0,0,0,0,0,0,0,0,0,0,0,0,0,0,0,
0,0,0,0,0,0,0,0,0,0,0,0,0,0,0,0,0,0,0,0,0,0,0,0,0,0,0,0,0,0,0,0,0,0,0,0,0,0,0,0,0,
633,634,0,0,0,0,0,0,0,0,0,0,0,0,0,0,0,0,0,0,0,0,0,0,0,0,0,0,0,0,0,0,0,0,0,0,0,0,0,0,0,
0,0,0,0,0,0,0,0,0,0,0,0,0,0,0,0,0,0,0,0,0,0,0,0,0,0,0,0,0,0,0,0,0,0,0,0,0,0,0,0,0,
0,0,0,0,0,0,0,0,0,0,0,0,0,0,0,0,0,0,0,0,0,0,0,0,0,0,0,0,0,0,0,0,0,0,0,0,0,0,0,0,0,
0,0,0,0,0,0,0,0,0,0,0,0,0,0,0,0,2684355432,0,0,0,0,0,0,0,0,0,0,0,0,0,0,0,0,0,0,0,0,0,0,0,0,
0,0,0,0,0,0,0,0,0,0,0,0,0,0,0,0,2684355433,0,0,0,0,0,0,0,0,0,0,0,0,0,0,0,0,0,585,0,585,0,0,0,0,
0,0,0,0,0,0,0,0,0,0,0,0,0,0,0,0,2684355434,0,0,0,0,0,0,0,0,0,0,0,0,0,0,0,0,0,0,0,0,0,0,0,0,
0,0,0,0,0,0,0,0,0,0,0,0,0,0,0,0,0,0,0,0,0,0,0,0,0,0,0,0,0,0,0,0,0,0,0,0,0,0,585,0,0,
0,0,0,0,0,0,0,0,0,0,0,2684355432,0,0,0,0,0,0,0,0,0,2684355432,0,0,0,0,0,0,0,0,0,0,0,0,0,0,0,0,0,0,0,
0,0,0,0,0,0,0,0,0,0,0,2684355433,0,0,0,0,0,0,0,0,0,2684355433,0,0,0,0,0,0,0,0,0,0,0,0,585,0,585,0,0,0,0,
0,0,0,0,0,0,0,0,0,0,0,2684355434,0,0,0,0,0,0,0,0,0,2684355434,0,0,0,0,0,0,0,0,0,0,0,0,0,0,0,0,0,0,0,
0,0,0,0,0,0,0,0,0,0,0,0,0,0,0,0,0,0,0,0,0,0,0,0,0,0,0,0,0,0,0,0,0,0,0,0,0,0,0,0,0,
0,0,0,0,0,0,0,0,0,0,0,0,0,0,0,0,0,0,0,0,0,0,0,0,0,0,0,0,0,0,0,0,0,0,0,0,0,0,0,0,0,
0,0,0,0,0,0,0,0,0,0,0,0,0,0,0,0,0,0,0,0,0,0,0,0,0,0,0,0,0,0,0,0,0,0,0,0,0,0,0,0,0
</data>
 </layer>
 <layer id="3" name="cancello" width="41" height="16">
  <data encoding="csv">
0,0,0,0,0,0,0,0,0,0,0,0,0,0,0,0,0,0,0,0,0,0,0,0,0,202,203,204,0,0,0,0,0,0,0,0,0,0,0,0,0,
0,0,0,0,0,0,0,0,0,0,0,0,0,0,0,0,0,0,0,0,0,0,0,0,0,230,231,232,0,0,0,0,0,0,0,0,0,0,0,0,0,
0,0,0,0,0,0,0,0,0,0,0,0,0,0,0,0,0,0,0,0,0,0,0,0,0,0,0,0,0,0,0,0,0,0,0,0,0,0,0,0,0,
0,0,0,0,0,0,0,0,0,0,0,0,0,0,0,0,0,0,0,0,0,0,0,0,0,0,0,0,0,0,0,0,0,0,0,0,0,0,0,0,0,
0,0,0,0,0,0,0,0,0,0,0,0,0,0,0,0,0,0,0,0,0,0,0,0,0,0,0,0,0,0,0,0,0,0,0,0,0,0,0,0,0,
0,0,0,0,0,0,0,0,0,0,0,0,0,0,0,0,0,0,0,0,0,0,0,0,0,0,0,0,0,0,0,0,0,0,0,0,0,0,0,0,0,
0,0,0,0,0,0,0,0,0,0,0,0,0,0,0,0,0,0,0,0,0,0,0,0,0,0,0,0,0,0,0,0,0,0,0,0,0,0,0,0,0,
0,0,0,0,0,0,0,0,0,0,0,0,0,0,0,0,0,0,0,0,0,0,0,0,0,0,0,0,0,0,0,0,0,0,0,0,0,0,0,0,0,
0,0,0,0,0,0,0,0,0,0,0,0,0,0,0,0,0,0,0,0,0,0,0,0,0,0,0,0,0,0,0,0,0,0,0,0,0,0,0,0,0,
0,0,0,0,0,0,0,0,0,0,0,0,0,0,0,0,0,0,0,0,0,0,0,0,0,0,0,0,0,0,0,0,0,0,0,0,0,0,0,0,0,
0,0,0,0,0,0,0,0,0,0,0,0,0,0,0,0,0,0,0,0,0,0,0,0,0,0,0,0,0,0,0,0,0,0,0,0,0,0,0,0,0,
0,0,0,0,0,0,0,0,0,0,0,0,0,0,0,0,0,0,0,0,0,0,0,0,0,0,0,0,0,0,0,0,0,0,0,0,0,0,0,0,0,
0,0,0,0,0,0,0,0,0,0,0,0,0,0,0,0,0,0,0,0,0,0,0,0,0,0,0,0,0,0,0,0,0,0,0,0,0,0,0,0,0,
0,0,0,0,0,0,0,0,0,0,0,0,0,0,0,0,0,0,0,0,0,0,0,0,0,0,0,0,0,0,0,0,0,0,0,0,0,0,0,0,0,
0,0,0,0,0,0,0,0,0,0,0,0,0,0,0,0,0,0,0,0,0,0,0,0,0,0,0,0,0,0,0,0,0,0,0,0,0,0,0,0,0,
0,0,0,0,0,0,0,0,0,0,0,0,0,0,0,0,0,0,0,0,0,0,0,0,0,0,0,0,0,0,0,0,0,0,0,0,0,0,0,0,0
</data>
 </layer>
 <objectgroup id="4" name="porta2">
  <object id="7" name="porta2" x="407" y="16" width="34" height="17">
   <properties>
    <property name="dest" value="lvl2"/>
    <property name="type" value="porta"/>
   </properties>
  </object>
 </objectgroup>
 <objectgroup id="6" name="Start">
  <object id="4" name="start1_1" x="32" y="48" width="13" height="15">
   <properties>
    <property name="type" value="startPoint"/>
   </properties>
  </object>
 </objectgroup>
 <objectgroup id="7" name="Ponte1_0">
  <object id="6" name="Ponte1_0" x="0" y="48" width="25" height="16">
   <properties>
    <property name="dest" value="lvl1_0"/>
    <property name="type" value="ponte"/>
   </properties>
  </object>
 </objectgroup>
</map>
