<?xml version="1.0" encoding="UTF-8"?>
<map version="1.10" tiledversion="1.12.1" orientation="orthogonal" renderorder="right-down" width="37" height="20" tilewidth="16" tileheight="16" infinite="1" nextlayerid="10" nextobjectid="26">
 <tileset firstgid="1" source="../tilestes/Set 1.tsx"/>
 <tileset firstgid="561" source="../tilestes/altare.tsx"/>
 <tileset firstgid="817" source="../tilestes/cristalli.tsx"/>
 <layer id="5" name="Base" width="37" height="20">
  <data encoding="csv">
   <chunk x="0" y="-16" width="16" height="16">
41,43,43,43,43,43,43,43,43,44,0,0,0,0,0,0,
69,98,98,98,98,98,98,98,98,100,0,0,0,0,0,0,
69,98,98,98,98,98,98,98,98,100,0,0,0,0,0,0,
69,98,98,98,98,98,98,98,98,100,0,0,0,0,0,0,
69,98,98,98,98,98,98,98,98,100,0,0,0,0,0,0,
69,98,98,98,98,98,98,98,98,100,0,0,0,0,0,0,
69,98,98,98,98,98,98,98,98,100,0,0,0,0,0,0,
69,98,98,98,98,98,98,98,98,100,0,0,0,0,0,0,
69,98,98,98,98,98,98,98,98,100,0,0,0,0,0,0,
69,98,98,98,98,98,98,98,98,100,0,0,0,0,0,0,
69,98,98,98,98,98,98,98,98,100,0,0,0,0,0,0,
69,98,98,98,98,98,98,98,98,100,0,0,0,0,0,0,
69,98,98,98,98,98,98,98,98,100,0,0,0,0,0,0,
69,98,98,98,98,98,98,98,98,100,0,0,0,0,0,0,
69,98,98,98,98,98,98,98,98,100,0,0,0,0,0,0,
69,98,98,98,98,98,98,98,98,100,0,0,0,0,0,0
</chunk>
   <chunk x="0" y="0" width="16" height="16">
125,126,126,126,1610612973,1610612973,126,126,126,128,0,0,0,0,0,0,
0,0,0,0,0,0,0,0,0,0,0,0,0,0,0,0,
0,0,0,0,0,0,0,0,0,0,0,0,0,0,0,0,
0,0,0,0,0,0,0,0,0,0,0,0,0,0,0,0,
0,0,0,0,0,0,0,0,0,0,0,0,0,0,0,0,
0,0,0,0,0,0,0,0,0,0,0,0,0,0,0,0,
0,0,0,0,0,0,0,0,0,0,0,0,0,0,0,0,
0,0,0,0,0,0,0,0,0,0,0,0,0,0,0,0,
0,0,0,0,0,0,0,0,0,0,0,0,0,0,0,0,
0,0,0,0,0,0,0,0,0,0,0,0,0,0,0,0,
0,0,0,0,0,0,0,0,0,0,0,0,0,0,0,0,
0,0,0,0,0,0,0,0,0,0,0,0,0,0,0,0,
0,0,0,0,0,0,0,0,0,0,0,0,0,0,0,0,
0,0,0,0,0,0,0,0,0,0,0,0,0,0,0,0,
0,0,0,0,0,0,0,0,0,0,0,0,0,0,0,0,
0,0,0,0,0,0,0,0,0,0,0,0,0,0,0,0
</chunk>
  </data>
 </layer>
 <layer id="7" name="Altarebase" width="37" height="20">
  <data encoding="csv">
   <chunk x="0" y="-16" width="16" height="16">
0,0,0,0,0,0,0,0,0,0,0,0,0,0,0,0,
0,0,0,0,0,0,0,0,0,0,0,0,0,0,0,0,
0,0,0,0,0,0,0,0,0,0,0,0,0,0,0,0,
0,0,0,0,0,0,0,0,0,0,0,0,0,0,0,0,
0,0,0,0,0,0,0,0,0,0,0,0,0,0,0,0,
0,0,0,0,0,0,0,0,0,0,0,0,0,0,0,0,
0,0,700,0,701,0,702,0,0,0,0,0,0,0,0,0,
0,0,0,0,0,0,0,0,0,0,0,0,0,0,0,0,
0,0,716,0,717,0,718,0,0,0,0,0,0,0,0,0,
0,0,0,0,0,0,0,0,0,0,0,0,0,0,0,0,
0,0,732,0,733,0,734,0,0,0,0,0,0,0,0,0,
0,0,0,0,0,0,0,0,0,0,0,0,0,0,0,0,
0,0,0,0,0,0,0,0,0,0,0,0,0,0,0,0,
0,0,0,0,0,0,0,0,0,0,0,0,0,0,0,0,
0,0,0,0,0,0,0,0,0,0,0,0,0,0,0,0,
0,0,0,0,0,0,0,0,0,0,0,0,0,0,0,0
</chunk>
  </data>
 </layer>
 <objectgroup id="8" name="altare">
  <object id="15" name="botV" gid="1442" x="192" y="-96" width="16" height="16"/>
  <object id="16" name="topV" gid="1410" x="192" y="-112" width="16" height="16"/>
  <object id="19" name="topB" gid="1346" x="208" y="-112" width="16" height="16"/>
  <object id="20" name="botB" gid="1378" x="208" y="-96" width="16" height="16"/>
  <object id="21" name="topR" gid="1347" x="224" y="-112" width="16" height="16"/>
  <object id="22" name="botR" gid="1379" x="224" y="-96" width="16" height="16"/>
  <object id="23" name="topV" gid="1411" x="240" y="-112" width="16" height="16"/>
  <object id="24" name="botV" gid="1443" x="240" y="-96" width="16" height="16"/>
 </objectgroup>
 <layer id="6" name="cancello" width="37" height="20">
  <data encoding="csv">
   <chunk x="0" y="-32" width="16" height="16">
0,0,0,0,0,0,0,0,0,0,0,0,0,0,0,0,
0,0,0,0,0,0,0,0,0,0,0,0,0,0,0,0,
0,0,0,0,0,0,0,0,0,0,0,0,0,0,0,0,
0,0,0,0,0,0,0,0,0,0,0,0,0,0,0,0,
0,0,0,0,0,0,0,0,0,0,0,0,0,0,0,0,
0,0,0,0,0,0,0,0,0,0,0,0,0,0,0,0,
0,0,0,0,0,0,0,0,0,0,0,0,0,0,0,0,
0,0,0,0,0,0,0,0,0,0,0,0,0,0,0,0,
0,0,0,0,0,0,0,0,0,0,0,0,0,0,0,0,
0,0,0,0,0,0,0,0,0,0,0,0,0,0,0,0,
0,0,0,0,0,0,0,0,0,0,0,0,0,0,0,0,
0,0,0,0,0,0,0,0,0,0,0,0,0,0,0,0,
0,0,0,0,0,0,0,0,0,0,0,0,0,0,0,0,
0,0,0,0,0,0,0,0,0,0,0,0,0,0,0,0,
0,0,0,0,0,0,0,0,0,0,0,0,0,0,0,0,
0,0,0,0,1481,1482,0,0,0,0,0,0,0,0,0,0
</chunk>
   <chunk x="0" y="-16" width="16" height="16">
0,0,0,0,1513,1514,0,0,0,0,0,0,0,0,0,0,
0,0,0,0,0,0,0,0,0,0,0,0,0,0,0,0,
0,0,0,0,0,0,0,0,0,0,0,0,0,0,0,0,
0,0,0,0,0,0,0,0,0,0,0,0,0,0,0,0,
0,0,0,0,0,0,0,0,0,0,0,0,0,0,0,0,
0,0,0,0,0,0,0,0,0,0,0,0,0,0,0,0,
0,0,0,0,0,0,0,0,0,0,0,0,0,0,0,0,
0,0,0,0,0,0,0,0,0,0,0,0,0,0,0,0,
0,0,0,0,0,0,0,0,0,0,0,0,0,0,0,0,
0,0,0,0,0,0,0,0,0,0,0,0,0,0,0,0,
0,0,0,0,0,0,0,0,0,0,0,0,0,0,0,0,
0,0,0,0,0,0,0,0,0,0,0,0,0,0,0,0,
0,0,0,0,0,0,0,0,0,0,0,0,0,0,0,0,
0,0,0,0,0,0,0,0,0,0,0,0,0,0,0,0,
0,0,0,0,0,0,0,0,0,0,0,0,0,0,0,0,
0,0,0,0,0,0,0,0,0,0,0,0,0,0,0,0
</chunk>
  </data>
 </layer>
 <layer id="9" name="Colonne" width="37" height="20">
  <data encoding="csv">
   <chunk x="0" y="-16" width="16" height="16">
0,0,0,0,0,0,0,0,0,0,0,0,0,0,0,0,
0,0,0,0,0,0,0,0,0,0,0,0,0,0,0,0,
0,0,0,0,0,0,0,0,0,0,0,0,0,0,0,0,
0,512,0,0,0,0,0,0,512,0,0,0,0,0,0,0,
0,540,0,0,0,0,0,0,540,0,0,0,0,0,0,0,
0,0,0,0,0,0,0,0,0,0,0,0,0,0,0,0,
0,0,0,0,0,0,0,0,0,0,0,0,0,0,0,0,
0,0,0,0,0,0,0,0,0,0,0,0,0,0,0,0,
0,0,0,0,0,0,0,0,0,0,0,0,0,0,0,0,
0,0,0,0,0,0,0,0,0,0,0,0,0,0,0,0,
0,512,0,0,0,0,0,0,512,0,0,0,0,0,0,0,
0,540,0,0,0,0,0,0,540,0,0,0,0,0,0,0,
0,0,0,0,0,0,0,0,0,0,0,0,0,0,0,0,
0,0,512,0,0,0,0,512,0,0,0,0,0,0,0,0,
0,0,540,0,0,0,0,540,0,0,0,0,0,0,0,0,
0,0,0,0,0,0,0,0,0,0,0,0,0,0,0,0
</chunk>
  </data>
 </layer>
</map>
