<?xml version="1.0" encoding="UTF-8"?>
<map version="1.10" tiledversion="1.12.1" orientation="orthogonal" renderorder="right-down" width="40" height="30" tilewidth="16" tileheight="16" infinite="0" nextlayerid="6" nextobjectid="4">
 <tileset firstgid="1" source="../tilestes/tileset_full.tsx"/>
 <tileset firstgid="401" source="../tilestes/cristalli.tsx"/>
 <layer id="1" name="Base" width="40" height="30" locked="1">
  <data encoding="csv">
0,0,0,0,0,0,0,0,0,0,0,0,0,0,0,0,0,0,0,0,0,0,0,0,0,0,0,0,0,0,0,0,0,0,0,0,0,0,0,0,
0,0,0,0,0,0,0,0,0,0,0,0,0,0,0,0,0,0,0,0,0,0,0,0,0,81,82,82,82,84,0,0,0,0,0,0,0,0,0,0,
0,81,82,82,82,82,82,82,82,82,82,82,82,82,82,82,82,82,82,82,82,82,84,0,0,97,98,98,98,106,0,0,0,0,0,0,0,0,0,0,
0,97,98,98,98,98,98,98,98,98,98,98,98,98,98,98,98,98,98,98,98,98,106,0,0,97,98,98,98,106,0,0,0,0,0,0,0,0,0,0,
0,97,98,98,98,98,98,98,98,98,98,98,98,98,98,98,98,98,98,98,98,98,106,0,0,97,98,98,98,106,0,0,0,0,0,0,0,0,0,0,
0,97,98,98,98,98,98,98,98,98,98,98,98,98,98,98,106,0,97,98,98,98,106,0,0,97,98,98,98,106,0,0,0,0,0,0,0,0,0,0,
0,97,98,98,98,98,98,98,98,98,98,98,98,98,98,98,106,0,97,98,98,98,106,0,0,97,98,98,98,106,0,0,0,0,0,0,0,0,0,0,
0,97,98,98,98,98,98,98,98,98,98,98,98,98,98,98,106,0,97,98,98,98,106,0,0,97,124,98,124,106,0,0,0,0,0,0,0,0,0,0,
0,97,98,98,98,98,98,98,98,98,98,98,98,98,98,98,106,0,97,98,98,98,106,0,0,139,140,98,140,141,0,0,0,0,0,0,0,0,0,0,
0,1610612817,1610612833,1610612833,1610612833,1610612833,1610612833,1610612833,1610612833,1610612833,1610612833,1610612833,1610612833,1610612833,1610612833,1610612833,3221225553,0,97,98,98,98,106,0,0,97,92,98,92,100,101,82,82,82,82,82,82,82,84,0,
0,0,0,0,0,0,0,0,0,0,0,0,0,0,0,0,0,0,97,98,98,98,106,0,0,97,98,98,98,98,98,98,98,98,98,98,98,98,106,0,
0,0,0,0,0,0,0,0,0,0,0,0,0,0,0,0,0,0,97,98,98,98,106,0,0,97,98,98,98,98,98,98,98,98,98,98,98,98,106,0,
0,0,0,0,0,0,0,0,0,0,0,0,0,0,0,0,0,0,97,98,98,98,106,0,0,1610612817,1610612833,1610612833,1610612833,1610612833,1610612833,1610612833,1610612833,1610612833,1610612833,1610612833,98,98,106,0,
0,0,0,0,0,0,0,0,0,0,0,0,0,0,0,0,0,0,97,98,98,98,106,0,0,0,0,0,0,0,0,0,0,0,0,0,97,98,106,0,
0,0,0,0,0,0,0,0,0,0,0,0,0,0,0,0,0,0,97,98,98,98,106,0,0,0,0,0,0,0,0,0,0,0,0,0,97,98,106,0,
0,0,0,0,0,0,0,0,0,0,0,0,0,0,0,0,0,0,97,98,98,98,106,0,0,0,0,0,0,0,0,0,0,0,0,0,97,98,106,0,
0,0,0,0,0,0,0,0,0,0,0,0,0,0,0,0,0,0,97,98,98,98,3221225569,0,0,81,82,82,82,82,82,82,82,82,84,0,97,98,106,0,
0,0,0,0,0,0,0,0,0,0,0,0,0,0,0,0,0,0,97,98,98,98,100,82,82,102,98,98,98,98,98,98,98,98,106,0,97,98,106,0,
0,0,0,0,0,0,0,0,0,0,0,0,0,0,0,0,0,0,97,98,98,98,98,98,98,98,98,98,98,98,98,98,98,98,106,0,97,98,106,0,
0,0,0,0,0,0,0,0,0,0,0,0,0,0,0,0,0,0,1610612817,1610612833,1610612833,1610612833,1610612833,1610612833,1610612833,1610612833,1610612833,1610612833,1610612833,1610612833,1610612833,98,98,98,106,0,97,98,106,0,
0,0,0,0,0,0,0,0,0,0,0,0,0,0,0,0,0,0,0,0,0,0,0,0,0,0,0,0,0,0,0,134,98,98,100,82,102,98,106,0,
0,0,0,0,0,0,0,0,0,0,0,0,0,0,0,0,0,0,0,0,0,91,92,93,0,82,82,82,82,82,82,102,98,98,98,98,98,98,106,0,
0,0,0,0,0,0,0,0,0,0,0,0,0,0,0,0,0,0,0,0,0,107,108,98,98,98,98,98,98,98,98,98,98,98,98,98,98,98,106,0,
0,0,0,0,0,0,0,0,0,0,0,0,0,0,0,0,0,0,0,0,0,123,124,125,0,107,98,98,98,98,98,98,98,98,98,98,98,98,106,0,
0,0,0,0,0,0,0,0,0,0,0,0,0,0,0,0,0,0,0,0,0,139,140,141,0,97,98,98,98,98,98,98,98,98,98,98,98,98,106,0,
0,0,0,0,0,0,0,0,0,0,0,0,0,0,0,0,0,0,0,0,0,0,0,0,0,97,98,98,98,98,98,98,98,98,98,98,98,98,106,0,
0,0,0,0,0,0,0,0,0,0,0,0,0,0,0,0,0,0,0,0,0,0,0,0,0,97,98,98,98,98,98,98,98,98,98,98,98,98,106,0,
0,0,0,0,0,0,0,0,0,0,0,0,0,0,0,0,0,0,0,0,0,0,0,0,0,97,98,98,98,98,98,98,98,98,98,98,98,98,106,0,
0,0,0,0,0,0,0,0,0,0,0,0,0,0,0,0,0,0,0,0,0,0,0,0,0,1610612817,1610612833,1610612833,1610612833,1610612833,1610612833,1610612833,1610612833,1610612833,1610612833,1610612833,1610612833,1610612833,3221225553,0,
0,0,0,0,0,0,0,0,0,0,0,0,0,0,0,0,0,0,0,0,0,0,0,0,0,0,0,0,0,0,0,0,0,0,0,0,0,0,0,0
</data>
 </layer>
 <layer id="3" name="ponti" width="40" height="30">
  <data encoding="csv">
0,0,0,0,0,0,0,0,0,0,0,0,0,0,0,0,0,0,0,0,0,0,0,0,0,0,0,0,0,0,0,0,0,0,0,0,0,0,0,0,
0,0,0,0,0,0,0,0,0,0,0,0,0,0,0,0,0,0,0,0,0,0,0,0,0,0,87,87,87,0,0,0,0,0,0,0,0,0,0,0,
0,0,0,0,0,83,150,150,87,0,151,0,150,0,0,0,0,83,0,87,150,87,0,0,0,0,135,0,0,0,0,0,0,0,0,0,0,0,0,0,
0,0,0,0,135,0,0,0,0,0,0,0,0,118,0,0,135,0,0,135,0,0,0,0,0,0,117,0,0,122,0,0,0,0,0,0,0,0,0,0,
0,0,135,0,0,0,0,0,118,0,0,3221225591,0,0,0,0,0,3221225607,0,0,0,118,0,0,0,113,0,0,1610612871,0,0,0,0,0,0,0,0,0,0,0,
0,113,0,0,0,0,0,135,135,0,0,0,3221225607,0,118,0,132,133,134,3221225607,0,135,0,0,0,113,3221225591,0,0,1610612871,0,0,0,0,0,0,0,0,0,0,
0,113,0,135,0,118,0,0,0,0,0,0,0,0,0,0,0,0,0,118,0,0,122,0,0,0,1610612854,0,2684354677,122,0,0,0,0,0,0,0,0,0,0,
0,0,0,117,0,0,0,0,0,0,118,0,0,2684354677,135,0,122,0,0,3221225591,0,0,122,0,0,0,0,2684354712,0,122,0,0,0,0,0,0,0,0,0,0,
0,0,0,135,0,0,0,117,135,0,0,0,3221225607,0,2684354695,0,122,0,113,0,0,0,122,0,0,0,0,2684354713,0,0,0,0,0,0,0,0,0,0,0,0,
0,0,0,0,2684354682,0,0,0,0,0,0,1610612849,1610612849,1610612849,0,0,0,0,0,0,0,0,0,0,0,0,0,2684354714,0,0,85,0,0,87,86,83,87,0,0,0,
0,0,0,0,0,0,0,0,0,0,0,0,0,0,0,0,0,0,0,3221225607,0,3221225591,0,0,0,113,1610612871,0,0,1610612854,1610612871,117,0,0,0,0,0,1610612854,0,0,
0,0,0,0,0,0,0,0,0,0,0,0,0,0,0,0,0,0,0,0,0,118,0,0,0,0,1610612853,0,0,3221225591,0,0,0,0,0,1610612871,0,0,122,0,
0,0,0,0,0,0,0,0,0,0,0,0,0,0,0,0,0,0,0,0,0,0,0,0,0,0,1610612849,0,0,0,0,1610612849,1610612849,1610612849,1610612849,0,1610612853,3221225591,0,0,
0,0,0,0,0,0,0,0,0,0,0,0,0,0,0,0,0,0,113,2684354678,0,3221225607,0,0,0,0,0,0,0,0,0,0,0,0,0,0,0,0,0,0,
0,0,0,0,0,0,0,0,0,0,0,0,0,0,0,0,0,0,0,3221225591,0,0,122,0,0,0,0,0,0,0,0,0,0,0,0,0,0,1610612871,122,0,
0,0,0,0,0,0,0,0,0,0,0,0,0,0,0,0,0,0,113,0,0,0,122,0,0,0,0,0,0,0,0,0,0,0,0,0,0,0,0,0,
0,0,0,0,0,0,0,0,0,0,0,0,0,0,0,0,0,0,0,0,0,0,122,0,0,0,85,0,0,0,87,86,87,0,0,0,113,0,0,0,
0,0,0,0,0,0,0,0,0,0,0,0,0,0,0,0,0,0,0,3221225591,0,2684354678,0,83,83,0,119,2684354678,0,0,0,0,0,3221225589,0,0,0,0,122,0,
0,0,0,0,0,0,0,0,0,0,0,0,0,0,0,0,0,0,0,2684354677,3221225607,0,3221225591,0,0,0,0,3221225591,0,0,3221225607,0,0,0,122,0,113,0,0,0,
0,0,0,0,0,0,0,0,0,0,0,0,0,0,0,0,0,0,0,0,0,1610612849,0,0,3221225591,1610612849,0,0,0,0,0,118,119,0,0,0,0,0,1610612871,0,
0,0,0,0,0,0,0,0,0,0,0,0,0,0,0,0,0,0,0,0,0,0,0,0,0,0,0,0,0,0,0,0,0,0,0,83,0,3221225589,0,0,
0,0,0,0,0,0,0,0,0,0,0,0,0,0,0,0,0,0,0,0,0,119,0,135,0,0,87,87,0,83,0,0,0,2684354678,0,119,135,0,0,0,
0,0,0,0,0,0,0,0,0,0,0,0,0,0,0,0,0,0,0,0,0,135,0,152,153,154,3221225591,0,3221225607,0,0,0,0,0,0,0,0,0,0,0,
0,0,0,0,0,0,0,0,0,0,0,0,0,0,0,0,0,0,0,0,0,119,119,135,0,0,0,2684354678,0,0,0,0,0,3221225591,3221225590,0,0,0,122,0,
0,0,0,0,0,0,0,0,0,0,0,0,0,0,0,0,0,0,0,0,0,0,0,0,0,0,0,0,3221225591,0,0,0,0,0,1610612855,0,0,0,122,0,
0,0,0,0,0,0,0,0,0,0,0,0,0,0,0,0,0,0,0,0,0,0,0,0,0,0,3221225607,0,0,0,0,3221225591,0,0,0,0,0,3221225591,122,0,
0,0,0,0,0,0,0,0,0,0,0,0,0,0,0,0,0,0,0,0,0,0,0,0,0,113,0,0,0,3221225590,0,0,0,3221225591,0,0,0,135,0,0,
0,0,0,0,0,0,0,0,0,0,0,0,0,0,0,0,0,0,0,0,0,0,0,0,0,0,3221225589,0,0,3221225591,135,0,0,0,0,135,3221225590,0,0,0,
0,0,0,0,0,0,0,0,0,0,0,0,0,0,0,0,0,0,0,0,0,0,0,0,0,0,0,0,0,0,1610612849,1610612849,1610612849,0,0,0,0,0,0,0,
0,0,0,0,0,0,0,0,0,0,0,0,0,0,0,0,0,0,0,0,0,0,0,0,0,0,0,0,0,0,0,0,0,0,0,0,0,0,0,0
</data>
 </layer>
 <objectgroup id="2" name="start">
  <object id="2" name="startlvl3_r" x="432" y="32" width="16" height="16">
   <properties>
    <property name="type" value="startPoint"/>
   </properties>
  </object>
 </objectgroup>
 <objectgroup id="4" name="Porta">
  <object id="3" name="portalvl3_r" x="38" y="32" width="20" height="18">
   <properties>
    <property name="condition" value="chiave"/>
    <property name="destinazione" value="lvl4_r"/>
    <property name="type" value="porta"/>
   </properties>
  </object>
 </objectgroup>
 <layer id="5" name="porta" width="40" height="30">
  <data encoding="csv">
0,0,0,0,0,0,0,0,0,0,0,0,0,0,0,0,0,0,0,0,0,0,0,0,0,0,0,0,0,0,0,0,0,0,0,0,0,0,0,0,
0,0,1065,1066,0,0,0,0,0,0,0,0,0,0,0,0,0,0,0,0,0,0,0,0,0,0,0,0,0,0,0,0,0,0,0,0,0,0,0,0,
0,0,1097,1098,0,0,0,0,0,0,0,0,0,0,0,0,0,0,0,0,0,0,0,0,0,0,0,0,0,0,0,0,0,0,0,0,0,0,0,0,
0,0,0,0,0,0,0,0,0,0,0,0,0,0,0,0,0,0,0,0,0,0,0,0,0,0,0,0,0,0,0,0,0,0,0,0,0,0,0,0,
0,0,0,0,0,0,0,0,0,0,0,0,0,0,0,0,0,0,0,0,0,0,0,0,0,0,0,0,0,0,0,0,0,0,0,0,0,0,0,0,
0,0,0,0,0,0,0,0,0,0,0,0,0,0,0,0,0,0,0,0,0,0,0,0,0,0,0,0,0,0,0,0,0,0,0,0,0,0,0,0,
0,0,0,0,0,0,0,0,0,0,0,0,0,0,0,0,0,0,0,0,0,0,0,0,0,0,0,0,0,0,0,0,0,0,0,0,0,0,0,0,
0,0,0,0,0,0,0,0,0,0,0,0,0,0,0,0,0,0,0,0,0,0,0,0,0,0,0,0,0,0,0,0,0,0,0,0,0,0,0,0,
0,0,0,0,0,0,0,0,0,0,0,0,0,0,0,0,0,0,0,0,0,0,0,0,0,0,0,0,0,0,0,0,0,0,0,0,0,0,0,0,
0,0,0,0,0,0,0,0,0,0,0,0,0,0,0,0,0,0,0,0,0,0,0,0,0,0,0,0,0,0,0,0,0,0,0,0,0,0,0,0,
0,0,0,0,0,0,0,0,0,0,0,0,0,0,0,0,0,0,0,0,0,0,0,0,0,0,0,0,0,0,0,0,0,0,0,0,0,0,0,0,
0,0,0,0,0,0,0,0,0,0,0,0,0,0,0,0,0,0,0,0,0,0,0,0,0,0,0,0,0,0,0,0,0,0,0,0,0,0,0,0,
0,0,0,0,0,0,0,0,0,0,0,0,0,0,0,0,0,0,0,0,0,0,0,0,0,0,0,0,0,0,0,0,0,0,0,0,0,0,0,0,
0,0,0,0,0,0,0,0,0,0,0,0,0,0,0,0,0,0,0,0,0,0,0,0,0,0,0,0,0,0,0,0,0,0,0,0,0,0,0,0,
0,0,0,0,0,0,0,0,0,0,0,0,0,0,0,0,0,0,0,0,0,0,0,0,0,0,0,0,0,0,0,0,0,0,0,0,0,0,0,0,
0,0,0,0,0,0,0,0,0,0,0,0,0,0,0,0,0,0,0,0,0,0,0,0,0,0,0,0,0,0,0,0,0,0,0,0,0,0,0,0,
0,0,0,0,0,0,0,0,0,0,0,0,0,0,0,0,0,0,0,0,0,0,0,0,0,0,0,0,0,0,0,0,0,0,0,0,0,0,0,0,
0,0,0,0,0,0,0,0,0,0,0,0,0,0,0,0,0,0,0,0,0,0,0,0,0,0,0,0,0,0,0,0,0,0,0,0,0,0,0,0,
0,0,0,0,0,0,0,0,0,0,0,0,0,0,0,0,0,0,0,0,0,0,0,0,0,0,0,0,0,0,0,0,0,0,0,0,0,0,0,0,
0,0,0,0,0,0,0,0,0,0,0,0,0,0,0,0,0,0,0,0,0,0,0,0,0,0,0,0,0,0,0,0,0,0,0,0,0,0,0,0,
0,0,0,0,0,0,0,0,0,0,0,0,0,0,0,0,0,0,0,0,0,0,0,0,0,0,0,0,0,0,0,0,0,0,0,0,0,0,0,0,
0,0,0,0,0,0,0,0,0,0,0,0,0,0,0,0,0,0,0,0,0,0,0,0,0,0,0,0,0,0,0,0,0,0,0,0,0,0,0,0,
0,0,0,0,0,0,0,0,0,0,0,0,0,0,0,0,0,0,0,0,0,0,0,0,0,0,0,0,0,0,0,0,0,0,0,0,0,0,0,0,
0,0,0,0,0,0,0,0,0,0,0,0,0,0,0,0,0,0,0,0,0,0,0,0,0,0,0,0,0,0,0,0,0,0,0,0,0,0,0,0,
0,0,0,0,0,0,0,0,0,0,0,0,0,0,0,0,0,0,0,0,0,0,0,0,0,0,0,0,0,0,0,0,0,0,0,0,0,0,0,0,
0,0,0,0,0,0,0,0,0,0,0,0,0,0,0,0,0,0,0,0,0,0,0,0,0,0,0,0,0,0,0,0,0,0,0,0,0,0,0,0,
0,0,0,0,0,0,0,0,0,0,0,0,0,0,0,0,0,0,0,0,0,0,0,0,0,0,0,0,0,0,0,0,0,0,0,0,0,0,0,0,
0,0,0,0,0,0,0,0,0,0,0,0,0,0,0,0,0,0,0,0,0,0,0,0,0,0,0,0,0,0,0,0,0,0,0,0,0,0,0,0,
0,0,0,0,0,0,0,0,0,0,0,0,0,0,0,0,0,0,0,0,0,0,0,0,0,0,0,0,0,0,0,0,0,0,0,0,0,0,0,0,
0,0,0,0,0,0,0,0,0,0,0,0,0,0,0,0,0,0,0,0,0,0,0,0,0,0,0,0,0,0,0,0,0,0,0,0,0,0,0,0
</data>
 </layer>
</map>
