<?xml version="1.0" encoding="UTF-8"?>
<map version="1.10" tiledversion="1.12.2" orientation="orthogonal" renderorder="right-down" width="40" height="30" tilewidth="16" tileheight="16" infinite="0" nextlayerid="7" nextobjectid="17">
 <tileset firstgid="1" source="../tilestes/tileset_full.tsx"/>
 <tileset firstgid="401" source="../tilestes/cristalli.tsx"/>
 <tileset firstgid="1169" source="../tilestes/CARTELLI.tsx"/>
 <tileset firstgid="2024" source="../tilestes/Set 1.tsx"/>
 <layer id="1" name="Base" width="40" height="30">
  <data encoding="csv">
0,0,0,0,0,0,0,0,0,0,0,0,0,0,0,0,0,0,0,0,0,0,0,0,0,0,0,0,0,0,0,0,0,0,0,0,0,0,0,0,
0,0,0,0,0,0,0,0,0,0,0,0,0,0,0,0,0,0,0,0,0,0,0,0,0,321,322,322,322,324,0,0,0,0,0,0,0,0,0,0,
0,321,322,322,322,322,322,322,322,322,322,322,322,322,322,322,322,322,322,322,322,322,324,0,0,337,338,338,338,346,0,0,0,0,0,0,0,0,0,0,
0,337,338,338,338,338,338,338,338,338,338,338,338,338,338,338,338,338,338,338,338,338,346,0,0,337,338,338,338,346,0,0,0,0,0,0,0,0,0,0,
0,337,338,338,338,338,338,338,338,338,338,338,338,338,338,338,338,338,338,338,338,338,346,0,0,337,338,338,338,346,0,0,0,0,0,0,0,0,0,0,
0,337,338,338,338,338,338,338,338,338,338,338,338,338,338,338,372,373,374,338,338,338,346,0,0,337,338,338,338,346,0,0,0,0,0,0,0,0,0,0,
0,337,338,338,338,338,338,338,338,338,338,338,338,338,338,338,346,0,337,338,338,338,346,0,0,337,338,338,338,346,0,0,0,0,0,0,0,0,0,0,
0,337,338,338,338,338,338,338,338,338,338,338,338,338,338,338,346,0,337,338,338,338,346,0,0,363,364,338,364,365,0,0,0,0,0,0,0,0,0,0,
0,337,338,338,338,338,338,338,338,338,338,338,338,338,338,338,346,0,337,338,338,338,346,0,0,379,380,2394,380,381,0,0,0,0,0,0,0,0,0,0,
0,3221225796,1610613073,1610613073,1610613073,1610613073,1610613073,1610613073,1610613073,1610613073,1610613073,1610613073,1610613073,1610613073,1610613073,1610613073,2684354884,0,337,338,338,338,346,0,0,337,332,338,332,340,322,322,322,322,322,322,322,322,324,0,
0,0,0,0,0,0,0,0,0,0,0,0,0,0,0,0,0,0,337,338,338,338,346,0,0,337,338,338,338,338,338,338,338,338,338,338,338,338,346,0,
0,0,0,0,0,0,0,0,0,0,0,0,0,0,0,0,0,0,337,338,338,338,346,0,0,337,338,338,338,338,338,338,338,338,338,338,338,338,346,0,
0,0,0,0,0,0,0,0,0,0,0,0,0,0,0,0,0,0,337,338,338,338,346,0,0,3221225796,1610613073,1610613073,1610613073,1610613073,1610613073,1610613073,1610613073,1610613073,1610613073,1610613073,338,338,346,0,
0,0,0,0,0,0,0,0,0,0,0,0,0,0,0,0,0,0,337,338,338,338,346,0,0,0,0,0,0,0,0,0,0,0,0,0,337,338,346,0,
0,0,0,0,0,0,0,0,0,0,0,0,0,0,0,0,0,0,337,338,338,338,346,0,0,0,0,0,0,0,0,0,0,0,0,0,337,338,346,0,
0,0,0,0,0,0,0,0,0,0,0,0,0,0,0,0,0,0,337,338,338,338,346,0,0,0,0,0,0,0,0,0,0,0,0,0,337,338,346,0,
0,0,0,0,0,0,0,0,0,0,0,0,0,0,0,0,0,0,337,338,338,338,340,322,322,322,322,322,322,322,322,322,322,322,324,0,337,338,346,0,
0,0,0,0,0,0,0,0,0,0,0,0,0,0,0,0,0,0,337,338,338,338,338,338,338,338,338,338,338,338,338,338,338,338,346,0,337,338,346,0,
0,0,0,0,0,0,0,0,0,0,0,0,0,0,0,0,0,0,337,338,338,338,338,338,338,338,338,338,338,338,338,338,338,338,346,0,337,338,346,0,
0,0,0,0,0,0,0,0,0,0,0,0,0,0,0,0,0,0,3221225796,1610613073,1610613073,1610613073,1610613073,1610613073,1610613073,1610613073,1610613073,1610613073,1610613073,1610613073,1610613073,338,338,338,346,0,337,338,346,0,
0,0,0,0,0,0,0,0,0,0,0,0,0,0,0,0,0,0,0,0,0,0,0,0,0,0,0,0,0,0,0,337,338,338,346,0,337,338,346,0,
0,0,0,0,0,0,0,0,0,0,0,0,0,0,0,0,0,0,0,0,0,331,332,333,0,322,322,322,322,322,322,342,338,338,340,341,342,338,346,0,
0,0,0,0,0,0,0,0,0,0,0,0,0,0,0,0,0,0,0,0,0,347,348,338,2395,338,338,338,338,338,338,338,338,338,338,338,338,338,346,0,
0,0,0,0,0,0,0,0,0,0,0,0,0,0,0,0,0,0,0,0,0,363,364,365,0,347,338,338,338,338,338,338,338,338,338,338,338,338,346,0,
0,0,0,0,0,0,0,0,0,0,0,0,0,0,0,0,0,0,0,0,0,379,380,381,0,337,338,338,338,338,338,338,338,338,338,338,338,338,346,0,
0,0,0,0,0,0,0,0,0,0,0,0,0,0,0,0,0,0,0,0,0,0,0,0,0,337,338,338,338,338,338,338,338,338,338,338,338,338,346,0,
0,0,0,0,0,0,0,0,0,0,0,0,0,0,0,0,0,0,0,0,0,0,0,0,0,337,338,338,338,338,338,338,338,338,338,338,338,338,346,0,
0,0,0,0,0,0,0,0,0,0,0,0,0,0,0,0,0,0,0,0,0,0,0,0,0,337,338,338,338,338,338,338,338,338,338,338,338,338,346,0,
0,0,0,0,0,0,0,0,0,0,0,0,0,0,0,0,0,0,0,0,0,0,0,0,0,3221225796,1610613073,1610613073,1610613073,1610613073,1610613073,1610613073,1610613073,1610613073,1610613073,1610613073,1610613073,1610613073,2684354884,0,
0,0,0,0,0,0,0,0,0,0,0,0,0,0,0,0,0,0,0,0,0,0,0,0,0,0,0,0,0,0,0,0,0,0,0,0,0,0,0,0
</data>
 </layer>
 <layer id="3" name="ponti" width="40" height="30">
  <data encoding="csv">
0,0,0,0,0,0,0,0,0,0,0,0,0,0,0,0,0,0,0,0,0,0,0,0,0,0,0,0,0,0,0,0,0,0,0,0,0,0,0,0,
0,0,0,0,0,0,0,0,0,0,0,0,0,0,0,0,0,0,0,0,0,0,0,0,0,0,0,0,0,0,0,0,0,0,0,0,0,0,0,0,
0,0,0,0,0,0,0,0,0,0,0,0,0,0,0,0,0,0,0,0,0,0,0,0,0,0,0,1418,0,0,0,0,0,0,0,0,0,0,0,0,
0,0,359,0,0,0,0,0,0,0,1418,0,0,0,0,0,0,0,0,0,0,1418,0,0,0,0,1418,0,0,0,0,0,0,0,0,0,0,0,0,0,
0,0,0,0,1418,0,0,0,0,0,0,0,0,1418,359,0,0,0,0,0,0,359,0,0,0,0,0,0,1418,0,0,0,0,0,0,0,0,0,0,0,
0,0,2147483993,359,0,0,0,0,0,1418,0,0,0,0,1418,345,0,0,0,0,0,0,0,0,0,0,1404,1418,359,0,0,0,0,0,0,0,0,0,0,0,
0,0,1433,1434,0,0,0,1418,0,0,0,0,0,0,1404,359,0,0,0,0,0,0,0,0,0,0,2147483993,0,345,0,0,0,0,0,0,0,0,0,0,0,
0,0,1452,1453,0,359,0,0,0,0,1418,0,1433,1434,0,0,0,0,0,0,0,0,0,0,0,0,0,2684354952,0,0,0,0,0,0,0,0,0,0,0,0,
0,0,2147483993,1418,375,1404,1418,0,0,0,0,359,1452,1453,1418,345,0,0,0,0,0,0,0,0,0,0,0,2684354953,0,0,0,0,0,0,0,0,0,0,0,0,
0,0,0,0,0,0,0,0,0,0,0,0,0,0,0,0,0,0,0,0,0,1418,0,0,0,0,0,2684354954,0,0,0,0,0,0,0,0,0,0,0,0,
0,0,0,0,0,0,0,0,0,0,0,0,0,0,0,0,0,0,0,0,0,0,0,0,0,0,0,1418,0,0,0,0,0,0,0,1418,0,1404,0,0,
0,0,0,0,0,0,0,0,0,0,0,0,0,0,0,0,0,0,0,1418,0,0,0,0,0,0,2147483993,1404,359,0,1418,0,0,0,0,0,0,359,0,0,
0,0,0,0,0,0,0,0,0,0,0,0,0,0,0,0,0,0,0,0,0,0,0,0,0,0,0,0,0,0,0,0,0,0,0,0,1418,0,0,0,
0,0,0,0,0,0,0,0,0,0,0,0,0,0,0,0,0,0,0,0,0,0,0,0,0,0,0,0,0,0,0,0,0,0,0,0,0,0,0,0,
0,0,0,0,0,0,0,0,0,0,0,0,0,0,0,0,0,0,0,0,0,1418,0,0,0,0,0,0,0,0,0,0,0,0,0,0,0,0,0,0,
0,0,0,0,0,0,0,0,0,0,0,0,0,0,0,0,0,0,0,0,0,0,0,0,0,0,0,0,0,0,0,0,0,0,0,0,0,0,1418,0,
0,0,0,0,0,0,0,0,0,0,0,0,0,0,0,0,0,0,0,359,0,0,0,0,0,0,0,0,0,0,0,0,0,0,0,0,0,0,0,0,
0,0,0,0,0,0,0,0,0,0,0,0,0,0,0,0,0,0,0,1404,0,0,0,0,0,0,0,0,0,0,0,0,1418,1404,0,0,0,0,0,0,
0,0,0,0,0,0,0,0,0,0,0,0,0,0,0,0,0,0,0,2147483993,1418,0,0,0,0,0,1418,0,0,0,0,0,0,359,0,0,0,0,0,0,
0,0,0,0,0,0,0,0,0,0,0,0,0,0,0,0,0,0,0,0,0,0,0,0,0,0,0,0,0,0,0,2147483993,0,0,0,0,1418,0,0,0,
0,0,0,0,0,0,0,0,0,0,0,0,0,0,0,0,0,0,0,0,0,0,0,0,0,0,0,0,0,0,0,0,0,0,0,0,0,0,0,0,
0,0,0,0,0,0,0,0,0,0,0,0,0,0,0,0,0,0,0,0,0,1404,0,0,0,0,0,0,0,0,0,0,0,0,0,0,0,0,0,0,
0,0,0,0,0,0,0,0,0,0,0,0,0,0,0,0,0,0,0,0,0,0,0,392,393,394,1418,0,0,0,1418,0,0,0,0,359,0,0,0,0,
0,0,0,0,0,0,0,0,0,0,0,0,0,0,0,0,0,0,0,0,0,0,0,1404,0,0,0,0,0,0,0,0,0,0,1418,0,0,0,1418,0,
0,0,0,0,0,0,0,0,0,0,0,0,0,0,0,0,0,0,0,0,0,0,0,0,0,0,2147483993,0,0,0,0,0,0,0,0,0,0,345,0,0,
0,0,0,0,0,0,0,0,0,0,0,0,0,0,0,0,0,0,0,0,0,0,0,0,0,0,0,1418,0,0,0,0,0,0,0,0,0,1404,0,0,
0,0,0,0,0,0,0,0,0,0,0,0,0,0,0,0,0,0,0,0,0,0,0,0,0,0,1404,359,1433,1434,0,1418,0,375,1433,1434,375,359,0,0,
0,0,0,0,0,0,0,0,0,0,0,0,0,0,0,0,0,0,0,0,0,0,0,0,0,0,2147483993,375,1452,1453,1404,0,359,1404,1452,1453,1418,345,0,0,
0,0,0,0,0,0,0,0,0,0,0,0,0,0,0,0,0,0,0,0,0,0,0,0,0,0,0,0,0,0,0,0,0,0,0,0,0,0,0,0,
0,0,0,0,0,0,0,0,0,0,0,0,0,0,0,0,0,0,0,0,0,0,0,0,0,0,0,0,0,0,0,0,0,0,0,0,0,0,0,0
</data>
 </layer>
 <objectgroup id="2" name="start">
  <object id="4" name="startlvl3_V" type="Start" x="440.182" y="63.4545">
   <point/>
  </object>
 </objectgroup>
 <objectgroup id="6" name="NPC">
  <object id="5" type="NPC" x="439.818" y="103.455">
   <properties>
    <property name="aspetto" value="orco"/>
    <property name="type" value="orco"/>
   </properties>
   <point/>
  </object>
  <object id="6" type="NPC" x="449.091" y="176.182">
   <properties>
    <property name="aspetto" value="orco"/>
    <property name="type" value="orco"/>
   </properties>
   <point/>
  </object>
  <object id="8" type="NPC" x="587.273" y="185.818">
   <properties>
    <property name="aspetto" value="orco"/>
    <property name="type" value="orco"/>
   </properties>
   <point/>
  </object>
  <object id="9" type="NPC" x="578.909" y="411.091">
   <properties>
    <property name="aspetto" value="orco"/>
    <property name="type" value="orco"/>
   </properties>
   <point/>
  </object>
  <object id="10" type="NPC" x="448.364" y="413.455">
   <properties>
    <property name="aspetto" value="orco"/>
    <property name="type" value="orco"/>
   </properties>
   <point/>
  </object>
  <object id="11" type="NPC" x="524" y="297.273">
   <properties>
    <property name="aspetto" value="orco"/>
    <property name="type" value="orco"/>
   </properties>
   <point/>
  </object>
  <object id="12" type="NPC" x="324.182" y="273.636">
   <properties>
    <property name="aspetto" value="orco"/>
    <property name="type" value="orco"/>
   </properties>
   <point/>
  </object>
  <object id="13" type="NPC" x="217.273" y="105.818">
   <properties>
    <property name="aspetto" value="orco"/>
    <property name="type" value="orco"/>
   </properties>
   <point/>
  </object>
  <object id="14" type="NPC" x="133.636" y="76.7273">
   <properties>
    <property name="aspetto" value="orco"/>
    <property name="type" value="orco"/>
   </properties>
   <point/>
  </object>
  <object id="15" type="NPC" x="75.8182" y="116.909">
   <properties>
    <property name="aspetto" value="orco"/>
    <property name="type" value="orco"/>
   </properties>
   <point/>
  </object>
  <object id="16" name="shop" type="NPC" x="512.25" y="431.5">
   <properties>
    <property name="aspetto" value="shop"/>
    <property name="type" value="shop"/>
   </properties>
   <point/>
  </object>
 </objectgroup>
 <layer id="5" name="porta" width="40" height="30">
  <data encoding="csv">
0,0,0,0,0,0,0,0,0,0,0,0,0,0,0,0,0,0,0,0,0,0,0,0,0,0,0,0,0,0,0,0,0,0,0,0,0,0,0,0,
0,0,1065,1066,0,0,0,0,0,0,0,0,0,0,0,0,0,0,0,0,0,0,0,0,0,0,0,0,0,0,0,0,0,0,0,0,0,0,0,0,
0,0,1097,1098,0,0,0,0,0,0,0,0,0,0,0,0,0,0,0,0,0,0,0,0,0,0,0,0,0,0,0,0,0,0,0,0,0,0,0,0,
0,0,0,0,0,0,0,0,0,0,0,0,0,0,0,0,0,0,0,0,0,0,0,0,0,0,0,0,0,0,0,0,0,0,0,0,0,0,0,0,
0,0,0,0,0,0,0,0,0,0,0,0,0,0,0,0,0,0,0,0,0,0,0,0,0,0,0,0,0,0,0,0,0,0,0,0,0,0,0,0,
0,0,0,0,0,0,0,0,0,0,0,0,0,0,0,0,0,0,0,0,0,0,0,0,0,0,0,0,0,0,0,0,0,0,0,0,0,0,0,0,
0,0,0,0,0,0,0,0,0,0,0,0,0,0,0,0,0,0,0,0,0,0,0,0,0,0,0,0,0,0,0,0,0,0,0,0,0,0,0,0,
0,0,0,0,0,0,0,0,0,0,0,0,0,0,0,0,0,0,0,0,0,0,0,0,0,0,0,0,0,0,0,0,0,0,0,0,0,0,0,0,
0,0,0,0,0,0,0,0,0,0,0,0,0,0,0,0,0,0,0,0,0,0,0,0,0,0,0,0,0,0,0,0,0,0,0,0,0,0,0,0,
0,0,0,0,0,0,0,0,0,0,0,0,0,0,0,0,0,0,0,0,0,0,0,0,0,0,0,0,0,0,0,0,0,0,0,0,0,0,0,0,
0,0,0,0,0,0,0,0,0,0,0,0,0,0,0,0,0,0,0,0,0,0,0,0,0,0,0,0,0,0,0,0,0,0,0,0,0,0,0,0,
0,0,0,0,0,0,0,0,0,0,0,0,0,0,0,0,0,0,0,0,0,0,0,0,0,0,0,0,0,0,0,0,0,0,0,0,0,0,0,0,
0,0,0,0,0,0,0,0,0,0,0,0,0,0,0,0,0,0,0,0,0,0,0,0,0,0,0,0,0,0,0,0,0,0,0,0,0,0,0,0,
0,0,0,0,0,0,0,0,0,0,0,0,0,0,0,0,0,0,0,0,0,0,0,0,0,0,0,0,0,0,0,0,0,0,0,0,0,0,0,0,
0,0,0,0,0,0,0,0,0,0,0,0,0,0,0,0,0,0,0,0,0,0,0,0,0,0,0,0,0,0,0,0,0,0,0,0,0,0,0,0,
0,0,0,0,0,0,0,0,0,0,0,0,0,0,0,0,0,0,0,0,0,0,0,0,0,0,0,0,0,0,0,0,0,0,0,0,0,0,0,0,
0,0,0,0,0,0,0,0,0,0,0,0,0,0,0,0,0,0,0,0,0,0,0,0,0,0,0,0,0,0,0,0,0,0,0,0,0,0,0,0,
0,0,0,0,0,0,0,0,0,0,0,0,0,0,0,0,0,0,0,0,0,0,0,0,0,0,0,0,0,0,0,0,0,0,0,0,0,0,0,0,
0,0,0,0,0,0,0,0,0,0,0,0,0,0,0,0,0,0,0,0,0,0,0,0,0,0,0,0,0,0,0,0,0,0,0,0,0,0,0,0,
0,0,0,0,0,0,0,0,0,0,0,0,0,0,0,0,0,0,0,0,0,0,0,0,0,0,0,0,0,0,0,0,0,0,0,0,0,0,0,0,
0,0,0,0,0,0,0,0,0,0,0,0,0,0,0,0,0,0,0,0,0,0,0,0,0,0,0,0,0,0,0,0,0,0,0,0,0,0,0,0,
0,0,0,0,0,0,0,0,0,0,0,0,0,0,0,0,0,0,0,0,0,0,0,0,0,0,0,0,0,0,0,0,0,0,0,0,0,0,0,0,
0,0,0,0,0,0,0,0,0,0,0,0,0,0,0,0,0,0,0,0,0,0,0,0,0,0,0,0,0,0,0,0,0,0,0,0,0,0,0,0,
0,0,0,0,0,0,0,0,0,0,0,0,0,0,0,0,0,0,0,0,0,0,0,0,0,0,0,0,0,0,0,0,0,0,0,0,0,0,0,0,
0,0,0,0,0,0,0,0,0,0,0,0,0,0,0,0,0,0,0,0,0,0,0,0,0,0,0,0,0,0,0,0,0,0,0,0,0,0,0,0,
0,0,0,0,0,0,0,0,0,0,0,0,0,0,0,0,0,0,0,0,0,0,0,0,0,0,0,0,0,0,0,0,0,0,0,0,0,0,0,0,
0,0,0,0,0,0,0,0,0,0,0,0,0,0,0,0,0,0,0,0,0,0,0,0,0,0,0,0,0,0,0,0,0,0,0,0,0,0,0,0,
0,0,0,0,0,0,0,0,0,0,0,0,0,0,0,0,0,0,0,0,0,0,0,0,0,0,0,0,0,0,0,0,0,0,0,0,0,0,0,0,
0,0,0,0,0,0,0,0,0,0,0,0,0,0,0,0,0,0,0,0,0,0,0,0,0,0,0,0,0,0,0,0,0,0,0,0,0,0,0,0,
0,0,0,0,0,0,0,0,0,0,0,0,0,0,0,0,0,0,0,0,0,0,0,0,0,0,0,0,0,0,0,0,0,0,0,0,0,0,0,0
</data>
 </layer>
 <objectgroup id="4" name="Porta">
  <object id="3" name="portalvl3_v" x="37" y="32" width="22" height="17">
   <properties>
    <property name="condition" value="chiave"/>
    <property name="destinazione" value="lvl4_v"/>
    <property name="type" value="porta"/>
   </properties>
  </object>
 </objectgroup>
</map>
