<?xml version="1.0" encoding="UTF-8"?>
<map version="1.10" tiledversion="1.12.1" orientation="orthogonal" renderorder="right-down" width="30" height="40" tilewidth="16" tileheight="16" infinite="1" nextlayerid="3" nextobjectid="1">
 <tileset firstgid="1" source="../tilestes/tileset_full.tsx"/>
 <tileset firstgid="401" source="../tilestes/cristalli.tsx"/>
 <layer id="1" name="Base" width="30" height="40" locked="1">
  <data encoding="csv">
   <chunk x="0" y="0" width="16" height="16">
0,0,0,0,0,0,0,0,0,0,0,0,0,0,0,0,
0,0,0,0,0,0,0,0,0,0,0,0,0,0,0,0,
0,0,0,0,0,0,0,0,0,0,0,0,0,0,0,0,
0,0,0,0,0,0,0,0,0,0,0,0,0,0,0,0,
0,0,0,0,0,0,0,0,0,0,0,0,0,0,0,0,
0,0,0,0,0,0,0,0,0,0,0,0,0,0,0,0,
0,0,0,0,0,0,0,0,0,0,0,0,81,82,82,82,
0,0,0,0,0,0,0,0,0,0,0,0,97,98,98,98,
0,0,0,0,0,0,0,0,0,0,0,0,97,98,98,98,
0,0,0,0,0,0,0,0,0,0,0,0,97,98,98,98,
0,0,0,0,0,0,0,0,0,0,0,0,97,98,98,98,
0,0,0,0,0,0,0,0,0,0,0,0,97,98,98,98,
0,0,0,0,0,0,0,0,0,0,0,0,97,98,98,98,
0,0,0,0,0,0,0,0,0,0,0,0,97,98,98,98,
0,0,0,0,0,0,0,0,0,0,0,0,97,98,98,98,
0,0,0,0,0,0,0,0,0,0,0,0,3221225556,1610612833,1610612833,98
</chunk>
   <chunk x="16" y="0" width="16" height="16">
0,0,0,0,0,0,0,0,0,0,0,0,0,0,0,0,
0,0,0,0,0,0,0,0,0,0,0,0,0,0,0,0,
0,0,0,0,0,0,0,0,0,0,0,0,0,0,0,0,
0,0,0,0,0,0,0,0,0,0,0,0,0,0,0,0,
0,0,0,0,0,0,0,0,0,0,0,0,0,0,0,0,
0,0,0,0,0,0,0,0,0,0,0,0,0,0,0,0,
82,82,82,82,82,84,0,0,0,0,0,0,0,0,0,0,
98,98,98,98,98,106,0,0,0,0,0,0,0,0,0,0,
98,98,98,98,98,106,0,0,0,0,0,0,0,0,0,0,
98,98,98,98,98,106,0,0,0,0,0,0,0,0,0,0,
98,98,98,98,98,106,0,0,0,0,0,0,0,0,0,0,
98,98,98,98,98,106,0,0,0,0,0,0,0,0,0,0,
98,98,98,98,98,106,0,0,0,0,0,0,0,0,0,0,
98,98,98,98,98,106,0,0,0,0,0,0,0,0,0,0,
98,98,98,98,98,106,0,0,0,0,0,0,0,0,0,0,
98,98,98,1610612833,1610612833,3221225553,0,0,0,0,0,0,0,0,0,0
</chunk>
   <chunk x="0" y="16" width="16" height="16">
0,0,0,0,0,0,0,0,0,0,0,0,0,0,0,97,
0,0,0,0,0,0,0,0,0,0,0,0,0,0,0,97,
0,0,0,0,0,0,0,0,0,0,0,0,0,0,0,97,
0,0,0,0,0,0,0,0,0,0,0,0,0,0,0,97,
0,0,0,0,0,0,0,0,0,0,0,0,0,0,0,97,
0,0,0,0,0,0,0,0,0,0,0,0,0,0,0,97,
0,0,0,0,0,0,0,0,0,0,0,0,0,0,0,97,
0,0,0,0,0,0,0,0,0,0,0,0,0,0,0,97,
0,0,0,0,0,0,0,0,0,0,0,0,0,0,0,97,
0,0,0,0,0,0,0,0,0,0,0,0,0,0,0,97,
0,0,0,0,0,0,0,0,0,0,0,0,0,0,0,97,
0,0,0,0,0,0,0,0,0,0,0,0,0,0,0,97,
0,0,0,0,0,0,0,0,0,0,0,0,0,0,0,97,
0,0,0,0,0,0,0,0,0,0,0,0,0,0,0,97,
0,0,0,0,0,0,0,0,0,0,0,0,0,0,0,97,
0,0,0,0,0,0,0,0,0,0,0,0,0,0,0,97
</chunk>
   <chunk x="16" y="16" width="16" height="16">
98,98,3221225569,0,0,0,0,0,0,0,0,0,0,0,0,0,
98,98,3221225569,0,0,0,0,0,0,0,0,0,0,0,0,0,
98,98,3221225569,0,0,0,0,0,0,0,0,0,0,0,0,0,
98,98,3221225569,0,0,0,0,0,0,0,0,0,0,0,0,0,
98,98,3221225569,0,0,0,0,0,0,0,0,0,0,0,0,0,
98,98,3221225569,0,0,0,0,0,0,0,0,0,0,0,0,0,
98,98,3221225569,0,0,0,0,0,0,0,0,0,0,0,0,0,
98,98,3221225569,0,0,0,0,0,0,0,0,0,0,0,0,0,
98,98,3221225569,0,0,0,0,0,0,0,0,0,0,0,0,0,
98,98,3221225569,0,0,0,0,0,0,0,0,0,0,0,0,0,
98,98,3221225569,0,0,0,0,0,0,0,0,0,0,0,0,0,
98,98,3221225569,0,0,0,0,0,0,0,0,0,0,0,0,0,
98,98,3221225569,0,0,0,0,0,0,0,0,0,0,0,0,0,
98,98,3221225569,0,0,0,0,0,0,0,0,0,0,0,0,0,
98,98,3221225569,0,0,0,0,0,0,0,0,0,0,0,0,0,
98,98,3221225569,0,0,0,0,0,0,0,0,0,0,0,0,0
</chunk>
   <chunk x="0" y="32" width="16" height="16">
0,0,0,0,0,0,0,0,0,0,0,0,0,0,0,97,
0,0,0,0,0,0,0,0,0,0,0,0,0,0,0,97,
0,0,0,0,0,0,0,0,0,0,0,0,0,0,0,97,
0,0,0,0,0,0,0,0,0,0,0,0,0,0,0,3221225556,
0,0,0,0,0,0,0,0,0,0,0,0,0,0,0,0,
0,0,0,0,0,0,0,0,0,0,0,0,0,0,0,0,
0,0,0,0,0,0,0,0,0,0,0,0,0,0,0,0,
0,0,0,0,0,0,0,0,0,0,0,0,0,0,0,0,
0,0,0,0,0,0,0,0,0,0,0,0,0,0,0,0,
0,0,0,0,0,0,0,0,0,0,0,0,0,0,0,0,
0,0,0,0,0,0,0,0,0,0,0,0,0,0,0,0,
0,0,0,0,0,0,0,0,0,0,0,0,0,0,0,0,
0,0,0,0,0,0,0,0,0,0,0,0,0,0,0,0,
0,0,0,0,0,0,0,0,0,0,0,0,0,0,0,0,
0,0,0,0,0,0,0,0,0,0,0,0,0,0,0,0,
0,0,0,0,0,0,0,0,0,0,0,0,0,0,0,0
</chunk>
   <chunk x="16" y="32" width="16" height="16">
98,98,3221225569,0,0,0,0,0,0,0,0,0,0,0,0,0,
98,98,3221225569,0,0,0,0,0,0,0,0,0,0,0,0,0,
98,98,3221225569,0,0,0,0,0,0,0,0,0,0,0,0,0,
1610612833,1610612833,3221225553,0,0,0,0,0,0,0,0,0,0,0,0,0,
0,0,0,0,0,0,0,0,0,0,0,0,0,0,0,0,
0,0,0,0,0,0,0,0,0,0,0,0,0,0,0,0,
0,0,0,0,0,0,0,0,0,0,0,0,0,0,0,0,
0,0,0,0,0,0,0,0,0,0,0,0,0,0,0,0,
0,0,0,0,0,0,0,0,0,0,0,0,0,0,0,0,
0,0,0,0,0,0,0,0,0,0,0,0,0,0,0,0,
0,0,0,0,0,0,0,0,0,0,0,0,0,0,0,0,
0,0,0,0,0,0,0,0,0,0,0,0,0,0,0,0,
0,0,0,0,0,0,0,0,0,0,0,0,0,0,0,0,
0,0,0,0,0,0,0,0,0,0,0,0,0,0,0,0,
0,0,0,0,0,0,0,0,0,0,0,0,0,0,0,0,
0,0,0,0,0,0,0,0,0,0,0,0,0,0,0,0
</chunk>
  </data>
 </layer>
 <layer id="2" name="calcelli" width="30" height="40">
  <data encoding="csv">
   <chunk x="16" y="0" width="16" height="16">
0,0,0,0,0,0,0,0,0,0,0,0,0,0,0,0,
0,0,0,0,0,0,0,0,0,0,0,0,0,0,0,0,
0,0,0,0,0,0,0,0,0,0,0,0,0,0,0,0,
0,0,0,0,0,0,0,0,0,0,0,0,0,0,0,0,
0,0,0,0,0,0,0,0,0,0,0,0,0,0,0,0,
0,0,0,0,0,0,0,0,0,0,0,0,0,0,0,0,
1065,1066,0,0,0,0,0,0,0,0,0,0,0,0,0,0,
1097,1098,0,0,0,0,0,0,0,0,0,0,0,0,0,0,
0,0,0,0,0,0,0,0,0,0,0,0,0,0,0,0,
0,0,0,0,0,0,0,0,0,0,0,0,0,0,0,0,
0,0,0,0,0,0,0,0,0,0,0,0,0,0,0,0,
0,0,0,0,0,0,0,0,0,0,0,0,0,0,0,0,
0,0,0,0,0,0,0,0,0,0,0,0,0,0,0,0,
0,0,0,0,0,0,0,0,0,0,0,0,0,0,0,0,
0,0,0,0,0,0,0,0,0,0,0,0,0,0,0,0,
0,0,0,0,0,0,0,0,0,0,0,0,0,0,0,0
</chunk>
   <chunk x="16" y="32" width="16" height="16">
0,0,0,0,0,0,0,0,0,0,0,0,0,0,0,0,
0,0,0,0,0,0,0,0,0,0,0,0,0,0,0,0,
1071,1072,0,0,0,0,0,0,0,0,0,0,0,0,0,0,
1103,1104,0,0,0,0,0,0,0,0,0,0,0,0,0,0,
0,0,0,0,0,0,0,0,0,0,0,0,0,0,0,0,
0,0,0,0,0,0,0,0,0,0,0,0,0,0,0,0,
0,0,0,0,0,0,0,0,0,0,0,0,0,0,0,0,
0,0,0,0,0,0,0,0,0,0,0,0,0,0,0,0,
0,0,0,0,0,0,0,0,0,0,0,0,0,0,0,0,
0,0,0,0,0,0,0,0,0,0,0,0,0,0,0,0,
0,0,0,0,0,0,0,0,0,0,0,0,0,0,0,0,
0,0,0,0,0,0,0,0,0,0,0,0,0,0,0,0,
0,0,0,0,0,0,0,0,0,0,0,0,0,0,0,0,
0,0,0,0,0,0,0,0,0,0,0,0,0,0,0,0,
0,0,0,0,0,0,0,0,0,0,0,0,0,0,0,0,
0,0,0,0,0,0,0,0,0,0,0,0,0,0,0,0
</chunk>
  </data>
 </layer>
</map>
