<?xml version="1.0" encoding="UTF-8"?>
<map version="1.10" tiledversion="1.12.1" orientation="orthogonal" renderorder="right-down" width="30" height="40" tilewidth="16" tileheight="16" infinite="1" nextlayerid="3" nextobjectid="1">
 <tileset firstgid="1" source="../tilestes/tileset_full.tsx"/>
 <tileset firstgid="401" source="../tilestes/cristalli.tsx"/>
 <layer id="1" name="Base" width="30" height="40" locked="1">
  <data encoding="csv">
   <chunk x="0" y="0" width="16" height="16">
0,0,0,0,0,0,0,0,0,0,0,0,0,0,0,0,
0,0,0,0,0,0,0,0,0,0,0,0,0,0,0,0,
0,0,0,0,0,0,0,0,0,0,0,0,0,0,0,0,
0,0,0,0,0,0,0,0,0,0,0,0,0,0,0,0,
0,0,0,0,0,0,0,0,0,0,0,0,0,0,0,0,
0,0,0,0,0,0,0,0,0,0,0,0,0,0,0,0,
0,0,0,0,0,0,0,0,0,0,0,0,161,162,162,162,
0,0,0,0,0,0,0,0,0,0,0,0,177,178,178,178,
0,0,0,0,0,0,0,0,0,0,0,0,177,178,178,178,
0,0,0,0,0,0,0,0,0,0,0,0,177,178,178,178,
0,0,0,0,0,0,0,0,0,0,0,0,177,178,178,178,
0,0,0,0,0,0,0,0,0,0,0,0,177,178,178,178,
0,0,0,0,0,0,0,0,0,0,0,0,177,178,178,178,
0,0,0,0,0,0,0,0,0,0,0,0,177,178,178,178,
0,0,0,0,0,0,0,0,0,0,0,0,177,178,178,178,
0,0,0,0,0,0,0,0,0,0,0,0,3221225636,1610612913,1610612913,178
</chunk>
   <chunk x="16" y="0" width="16" height="16">
0,0,0,0,0,0,0,0,0,0,0,0,0,0,0,0,
0,0,0,0,0,0,0,0,0,0,0,0,0,0,0,0,
0,0,0,0,0,0,0,0,0,0,0,0,0,0,0,0,
0,0,0,0,0,0,0,0,0,0,0,0,0,0,0,0,
0,0,0,0,0,0,0,0,0,0,0,0,0,0,0,0,
0,0,0,0,0,0,0,0,0,0,0,0,0,0,0,0,
162,162,162,162,162,164,0,0,0,0,0,0,0,0,0,0,
178,178,178,178,178,186,0,0,0,0,0,0,0,0,0,0,
178,178,178,178,178,186,0,0,0,0,0,0,0,0,0,0,
178,178,178,178,178,186,0,0,0,0,0,0,0,0,0,0,
178,178,178,178,178,186,0,0,0,0,0,0,0,0,0,0,
178,178,178,178,178,186,0,0,0,0,0,0,0,0,0,0,
178,178,178,178,178,186,0,0,0,0,0,0,0,0,0,0,
178,178,178,178,178,186,0,0,0,0,0,0,0,0,0,0,
178,178,178,178,178,186,0,0,0,0,0,0,0,0,0,0,
178,178,178,1610612913,1610612913,3221225633,0,0,0,0,0,0,0,0,0,0
</chunk>
   <chunk x="0" y="16" width="16" height="16">
0,0,0,0,0,0,0,0,0,0,0,0,0,0,0,177,
0,0,0,0,0,0,0,0,0,0,0,0,0,0,0,177,
0,0,0,0,0,0,0,0,0,0,0,0,0,0,0,177,
0,0,0,0,0,0,0,0,0,0,0,0,0,0,0,177,
0,0,0,0,0,0,0,0,0,0,0,0,0,0,0,177,
0,0,0,0,0,0,0,0,0,0,0,0,0,0,0,177,
0,0,0,0,0,0,0,0,0,0,0,0,0,0,0,177,
0,0,0,0,0,0,0,0,0,0,0,0,0,0,0,177,
0,0,0,0,0,0,0,0,0,0,0,0,0,0,0,177,
0,0,0,0,0,0,0,0,0,0,0,0,0,0,0,177,
0,0,0,0,0,0,0,0,0,0,0,0,0,0,0,177,
0,0,0,0,0,0,0,0,0,0,0,0,0,0,0,177,
0,0,0,0,0,0,0,0,0,0,0,0,0,0,0,177,
0,0,0,0,0,0,0,0,0,0,0,0,0,0,0,177,
0,0,0,0,0,0,0,0,0,0,0,0,0,0,0,177,
0,0,0,0,0,0,0,0,0,0,0,0,0,0,0,177
</chunk>
   <chunk x="16" y="16" width="16" height="16">
178,178,186,0,0,0,0,0,0,0,0,0,0,0,0,0,
178,178,186,0,0,0,0,0,0,0,0,0,0,0,0,0,
178,178,186,0,0,0,0,0,0,0,0,0,0,0,0,0,
178,178,186,0,0,0,0,0,0,0,0,0,0,0,0,0,
178,178,186,0,0,0,0,0,0,0,0,0,0,0,0,0,
178,178,186,0,0,0,0,0,0,0,0,0,0,0,0,0,
178,178,186,0,0,0,0,0,0,0,0,0,0,0,0,0,
178,178,186,0,0,0,0,0,0,0,0,0,0,0,0,0,
178,178,186,0,0,0,0,0,0,0,0,0,0,0,0,0,
178,178,186,0,0,0,0,0,0,0,0,0,0,0,0,0,
178,178,186,0,0,0,0,0,0,0,0,0,0,0,0,0,
178,178,186,0,0,0,0,0,0,0,0,0,0,0,0,0,
178,178,186,0,0,0,0,0,0,0,0,0,0,0,0,0,
178,178,186,0,0,0,0,0,0,0,0,0,0,0,0,0,
178,178,186,0,0,0,0,0,0,0,0,0,0,0,0,0,
178,178,186,0,0,0,0,0,0,0,0,0,0,0,0,0
</chunk>
   <chunk x="0" y="32" width="16" height="16">
0,0,0,0,0,0,0,0,0,0,0,0,0,0,0,177,
0,0,0,0,0,0,0,0,0,0,0,0,0,0,0,177,
0,0,0,0,0,0,0,0,0,0,0,0,0,0,0,177,
0,0,0,0,0,0,0,0,0,0,0,0,0,0,0,3221225636,
0,0,0,0,0,0,0,0,0,0,0,0,0,0,0,0,
0,0,0,0,0,0,0,0,0,0,0,0,0,0,0,0,
0,0,0,0,0,0,0,0,0,0,0,0,0,0,0,0,
0,0,0,0,0,0,0,0,0,0,0,0,0,0,0,0,
0,0,0,0,0,0,0,0,0,0,0,0,0,0,0,0,
0,0,0,0,0,0,0,0,0,0,0,0,0,0,0,0,
0,0,0,0,0,0,0,0,0,0,0,0,0,0,0,0,
0,0,0,0,0,0,0,0,0,0,0,0,0,0,0,0,
0,0,0,0,0,0,0,0,0,0,0,0,0,0,0,0,
0,0,0,0,0,0,0,0,0,0,0,0,0,0,0,0,
0,0,0,0,0,0,0,0,0,0,0,0,0,0,0,0,
0,0,0,0,0,0,0,0,0,0,0,0,0,0,0,0
</chunk>
   <chunk x="16" y="32" width="16" height="16">
178,178,186,0,0,0,0,0,0,0,0,0,0,0,0,0,
178,178,186,0,0,0,0,0,0,0,0,0,0,0,0,0,
178,178,186,0,0,0,0,0,0,0,0,0,0,0,0,0,
1610612913,1610612913,3221225633,0,0,0,0,0,0,0,0,0,0,0,0,0,
0,0,0,0,0,0,0,0,0,0,0,0,0,0,0,0,
0,0,0,0,0,0,0,0,0,0,0,0,0,0,0,0,
0,0,0,0,0,0,0,0,0,0,0,0,0,0,0,0,
0,0,0,0,0,0,0,0,0,0,0,0,0,0,0,0,
0,0,0,0,0,0,0,0,0,0,0,0,0,0,0,0,
0,0,0,0,0,0,0,0,0,0,0,0,0,0,0,0,
0,0,0,0,0,0,0,0,0,0,0,0,0,0,0,0,
0,0,0,0,0,0,0,0,0,0,0,0,0,0,0,0,
0,0,0,0,0,0,0,0,0,0,0,0,0,0,0,0,
0,0,0,0,0,0,0,0,0,0,0,0,0,0,0,0,
0,0,0,0,0,0,0,0,0,0,0,0,0,0,0,0,
0,0,0,0,0,0,0,0,0,0,0,0,0,0,0,0
</chunk>
  </data>
 </layer>
 <layer id="2" name="calcelli" width="30" height="40">
  <data encoding="csv">
   <chunk x="16" y="0" width="16" height="16">
0,0,0,0,0,0,0,0,0,0,0,0,0,0,0,0,
0,0,0,0,0,0,0,0,0,0,0,0,0,0,0,0,
0,0,0,0,0,0,0,0,0,0,0,0,0,0,0,0,
0,0,0,0,0,0,0,0,0,0,0,0,0,0,0,0,
0,0,0,0,0,0,0,0,0,0,0,0,0,0,0,0,
0,0,0,0,0,0,0,0,0,0,0,0,0,0,0,0,
1065,1066,0,0,0,0,0,0,0,0,0,0,0,0,0,0,
1097,1098,0,0,0,0,0,0,0,0,0,0,0,0,0,0,
0,0,0,0,0,0,0,0,0,0,0,0,0,0,0,0,
0,0,0,0,0,0,0,0,0,0,0,0,0,0,0,0,
0,0,0,0,0,0,0,0,0,0,0,0,0,0,0,0,
0,0,0,0,0,0,0,0,0,0,0,0,0,0,0,0,
0,0,0,0,0,0,0,0,0,0,0,0,0,0,0,0,
0,0,0,0,0,0,0,0,0,0,0,0,0,0,0,0,
0,0,0,0,0,0,0,0,0,0,0,0,0,0,0,0,
0,0,0,0,0,0,0,0,0,0,0,0,0,0,0,0
</chunk>
   <chunk x="16" y="32" width="16" height="16">
0,0,0,0,0,0,0,0,0,0,0,0,0,0,0,0,
0,0,0,0,0,0,0,0,0,0,0,0,0,0,0,0,
1071,1072,0,0,0,0,0,0,0,0,0,0,0,0,0,0,
1103,1104,0,0,0,0,0,0,0,0,0,0,0,0,0,0,
0,0,0,0,0,0,0,0,0,0,0,0,0,0,0,0,
0,0,0,0,0,0,0,0,0,0,0,0,0,0,0,0,
0,0,0,0,0,0,0,0,0,0,0,0,0,0,0,0,
0,0,0,0,0,0,0,0,0,0,0,0,0,0,0,0,
0,0,0,0,0,0,0,0,0,0,0,0,0,0,0,0,
0,0,0,0,0,0,0,0,0,0,0,0,0,0,0,0,
0,0,0,0,0,0,0,0,0,0,0,0,0,0,0,0,
0,0,0,0,0,0,0,0,0,0,0,0,0,0,0,0,
0,0,0,0,0,0,0,0,0,0,0,0,0,0,0,0,
0,0,0,0,0,0,0,0,0,0,0,0,0,0,0,0,
0,0,0,0,0,0,0,0,0,0,0,0,0,0,0,0,
0,0,0,0,0,0,0,0,0,0,0,0,0,0,0,0
</chunk>
  </data>
 </layer>
</map>
