<?xml version="1.0" encoding="UTF-8"?>
<map version="1.10" tiledversion="1.12.1" orientation="orthogonal" renderorder="right-down" width="37" height="20" tilewidth="16" tileheight="16" infinite="1" nextlayerid="3" nextobjectid="1">
 <tileset firstgid="1" source="../tilestes/tileset_full.tsx"/>
 <tileset firstgid="401" source="../tilestes/cristalli.tsx"/>
 <layer id="1" name="base" width="37" height="20">
  <data encoding="csv">
   <chunk x="-16" y="0" width="16" height="16">
0,0,0,0,0,0,0,0,0,0,0,0,0,0,0,0,
0,0,0,0,0,0,0,321,322,322,322,322,322,322,324,0,
0,0,0,0,0,0,0,337,338,338,338,338,338,338,346,0,
0,0,0,0,0,0,0,337,338,338,338,338,338,338,346,0,
0,0,0,0,0,0,0,337,338,338,338,338,338,338,346,0,
0,0,0,0,0,0,0,337,338,338,338,338,338,338,346,0,
0,0,0,0,0,0,0,337,338,338,338,338,338,338,346,0,
0,0,0,0,0,0,0,337,338,338,338,338,338,338,346,0,
0,0,0,0,0,0,0,337,338,338,338,338,338,338,346,0,
0,0,0,0,0,0,0,337,338,338,338,338,338,338,346,0,
0,0,0,0,0,0,0,337,338,338,338,338,338,338,346,0,
0,0,0,0,0,0,0,337,338,338,338,338,338,338,346,0,
0,0,0,0,0,0,0,3221225796,1610613073,1610613073,1610613073,1610613073,1610613073,1610613073,3221225793,0,
0,0,0,0,0,0,0,0,0,0,0,0,0,0,0,0,
0,0,0,0,0,0,0,0,0,0,0,0,0,0,0,0,
0,0,0,0,0,0,0,0,0,0,0,0,0,0,0,0
</chunk>
  </data>
 </layer>
 <layer id="2" name="porta" width="37" height="20">
  <data encoding="csv">
   <chunk x="-16" y="0" width="16" height="16">
0,0,0,0,0,0,0,0,0,418,419,419,420,0,0,0,
0,0,0,0,0,0,0,0,0,481,482,483,485,0,0,0,
0,0,0,0,0,0,0,0,0,481,482,483,485,0,0,0,
0,0,0,0,0,0,0,0,0,0,0,0,0,0,0,0,
0,0,0,0,0,0,0,0,0,0,0,0,0,0,0,0,
0,0,0,0,0,0,0,0,0,0,0,0,0,0,0,0,
0,0,0,0,0,0,0,0,0,0,0,0,0,0,0,0,
0,0,0,0,0,0,0,0,0,0,0,0,0,0,0,0,
0,0,0,0,0,0,0,0,0,0,0,0,0,0,0,0,
0,0,0,0,0,0,0,0,0,0,0,0,0,0,0,0,
0,0,0,0,0,0,0,0,0,0,0,0,0,0,0,0,
0,0,0,0,0,0,0,0,0,0,1071,1072,0,0,0,0,
0,0,0,0,0,0,0,0,0,0,1103,1104,0,0,0,0,
0,0,0,0,0,0,0,0,0,0,0,0,0,0,0,0,
0,0,0,0,0,0,0,0,0,0,0,0,0,0,0,0,
0,0,0,0,0,0,0,0,0,0,0,0,0,0,0,0
</chunk>
  </data>
 </layer>
</map>
