<?xml version="1.0" encoding="UTF-8"?>
<map version="1.10" tiledversion="1.12.1" orientation="orthogonal" renderorder="right-down" width="10" height="14" tilewidth="16" tileheight="16" infinite="0" nextlayerid="5" nextobjectid="4">
 <tileset firstgid="1" source="../tilestes/tileset_full.tsx"/>
 <tileset firstgid="401" source="../tilestes/cristalli.tsx"/>
 <layer id="1" name="base" width="10" height="14">
  <data encoding="csv">
0,0,0,0,0,0,0,0,0,0,
0,81,82,82,82,82,82,82,84,0,
0,97,98,98,98,98,98,98,106,0,
0,97,98,98,98,98,98,98,106,0,
0,97,98,98,98,98,98,98,106,0,
0,97,98,98,98,98,98,98,106,0,
0,97,98,98,98,98,98,98,106,0,
0,97,98,98,98,98,98,98,106,0,
0,97,98,98,98,98,98,98,106,0,
0,97,98,98,98,98,98,98,106,0,
0,97,98,98,98,98,98,98,106,0,
0,97,98,98,98,98,98,98,106,0,
0,3221225556,2684354666,2684354666,2684354666,2684354666,2684354666,2684354666,2684354644,0,
0,0,0,0,0,0,0,0,0,0
</data>
 </layer>
 <objectgroup id="3" name="start">
  <object id="2" name="start" x="64" y="160" width="16" height="16">
   <properties>
    <property name="type" value="startPoint"/>
   </properties>
  </object>
 </objectgroup>
 <objectgroup id="4" name="finale_r">
  <object id="3" name="finale_r" x="48" y="32" width="64" height="16">
   <properties>
    <property name="condition" value="boss_sconfitto"/>
    <property name="type" value="portaF"/>
   </properties>
  </object>
 </objectgroup>
 <layer id="2" name="porta" width="10" height="14">
  <data encoding="csv">
0,0,0,418,419,419,420,0,0,0,
0,0,0,481,482,483,485,0,0,0,
0,0,0,481,482,483,485,0,0,0,
0,0,0,0,0,0,0,0,0,0,
0,0,0,0,0,0,0,0,0,0,
0,0,0,0,0,0,0,0,0,0,
0,0,0,0,0,0,0,0,0,0,
0,0,0,0,0,0,0,0,0,0,
0,0,0,0,0,0,0,0,0,0,
0,0,0,0,0,0,0,0,0,0,
0,0,0,0,0,0,0,0,0,0,
0,0,0,0,1071,1072,0,0,0,0,
0,0,0,0,1103,1104,0,0,0,0,
0,0,0,0,0,0,0,0,0,0
</data>
 </layer>
</map>
